; generated by PrusaSlicer 2.0.0+win64 on 2019-07-23 at 13:42:25

; 

; external perimeters extrusion width = 0.45mm
; perimeters extrusion width = 0.45mm
; infill extrusion width = 0.45mm
; solid infill extrusion width = 0.45mm
; top infill extrusion width = 0.40mm
; support material extrusion width = 0.35mm
; first layer extrusion width = 0.42mm

M73 P0 R46
M73 Q0 S46
M201 X1000 Y1000 Z1000 E5000 ; sets maximum accelerations, mm/sec^2
M203 X200 Y200 Z12 E120 ; sets maximum feedrates, mm/sec
M204 P1250 R1250 T1250 ; sets acceleration (P, T) and retract acceleration (R), mm/sec^2
M205 X8.00 Y8.00 Z0.40 E1.50 ; sets the jerk limits, mm/sec
M205 S0 T0 ; sets the minimum extruding and travel feed rate, mm/sec
M107
M115 U3.7.2 ; tell printer latest fw version
G90 ; use absolute coordinates
M83 ; extruder relative mode
M104 S215 ; set extruder temp
M140 S60 ; set bed temp
M190 S60 ; wait for bed temp
M109 S215 ; wait for extruder temp
G28 W ; home all without mesh bed level
G80 ; mesh bed leveling
G1 Y-3.0 F1000.0 ; go outside print area
G92 E0.0
G1 X60.0 E9.0 F1000.0 ; intro line
M73 Q0 S46
M73 P0 R46
G1 X100.0 E12.5 F1000.0 ; intro line
G92 E0.0
M221 S95
M900 K30 ; Filament gcode
G21 ; set units to millimeters
G90 ; use absolute coordinates
M83 ; use relative distances for extrusion
;BEFORE_LAYER_CHANGE
G92 E0.0
;0.2


G1 E-0.80000 F2100.00000
G1 Z0.600 F10800.000
;AFTER_LAYER_CHANGE
;0.2
G1 X110.610 Y71.871
G1 Z0.200
G1 E0.80000 F2100.00000
M204 S1000
G1 F1200
G1 X111.723 Y71.720 E0.03523
G1 X123.922 Y71.549 E0.38252
G1 X124.809 Y71.628 E0.02793
G1 X130.608 Y72.741 E0.18513
G1 X132.738 Y73.470 E0.07060
G1 X134.388 Y74.351 E0.05864
G1 X135.198 Y74.911 E0.03088
G1 X136.308 Y75.841 E0.04541
G1 X137.652 Y77.319 E0.06265
G1 X138.462 Y78.493 E0.04469
G1 X138.948 Y79.362 E0.03123
G1 X139.362 Y80.264 E0.03112
G1 X139.837 Y81.620 E0.04503
G1 X140.196 Y83.272 E0.05303
G1 X140.316 Y84.454 E0.03724
G1 X140.658 Y104.929 E0.64207
G1 X140.700 Y122.775 E0.55956
G1 X140.608 Y124.240 E0.04601
G1 X140.454 Y125.224 E0.03122
G1 X140.006 Y126.880 E0.05380
G1 X139.383 Y128.375 E0.05079
G1 X138.816 Y129.405 E0.03685
G1 X137.846 Y130.778 E0.05273
G1 X136.757 Y131.963 E0.05048
G1 X135.465 Y133.047 E0.05286
G1 X134.047 Y133.947 E0.05267
G1 X132.557 Y134.642 E0.05153
G1 X125.843 Y136.920 E0.22231
G1 X124.853 Y137.134 E0.03176
G1 X112.189 Y137.166 E0.39707
G1 X111.242 Y137.073 E0.02984
G1 X110.443 Y136.849 E0.02601
G1 X109.691 Y136.499 E0.02601
G1 X109.006 Y136.031 E0.02601
G1 X108.403 Y135.453 E0.02619
G1 X107.905 Y134.790 E0.02601
G1 X107.521 Y134.054 E0.02601
G1 X107.261 Y133.261 E0.02619
G1 X107.134 Y132.441 E0.02601
G1 X106.758 Y94.535 E1.18857
G1 X106.758 Y76.781 E0.55666
G1 X106.851 Y75.839 E0.02967
G1 X107.039 Y75.140 E0.02270
G1 X107.322 Y74.480 E0.02253
G1 X107.695 Y73.866 E0.02253
G1 X108.155 Y73.306 E0.02270
G1 X108.685 Y72.821 E0.02253
G1 X109.278 Y72.415 E0.02253
G1 X109.927 Y72.095 E0.02270
G1 X110.553 Y71.890 E0.02065
G1 F8640
G1 X111.723 Y71.720 E-0.27310
G1 X113.832 Y71.690 E-0.48690
G1 E-0.04000 F2100.00000
G1 Z0.800 F10800.000
G1 X126.827 Y72.769
G1 Z0.200
G1 E0.80000 F2100.00000
G1 F1200
G1 X127.874 Y72.749 E0.03283
G1 X128.689 Y72.798 E0.02561
G1 X129.553 Y72.908 E0.02730
G1 X130.394 Y73.076 E0.02689
G1 X131.144 Y73.277 E0.02435
G1 X131.868 Y73.522 E0.02398
G1 X132.676 Y73.854 E0.02741
G1 X133.456 Y74.241 E0.02728
G1 X134.175 Y74.663 E0.02614
G1 X134.905 Y75.160 E0.02769
G1 X135.540 Y75.661 E0.02535
G1 X136.139 Y76.199 E0.02526
G1 X136.710 Y76.783 E0.02560
G1 X137.251 Y77.417 E0.02611
G1 X137.755 Y78.096 E0.02653
G1 X138.227 Y78.831 E0.02740
G1 X138.646 Y79.600 E0.02744
G1 X138.993 Y80.355 E0.02606
G1 X139.276 Y81.094 E0.02481
G1 X139.512 Y81.851 E0.02485
G1 X139.718 Y82.719 E0.02799
G1 X139.846 Y83.474 E0.02398
G1 X139.926 Y84.245 E0.02432
G1 X139.960 Y85.099 E0.02680
G1 X139.935 Y85.953 E0.02679
G1 X139.846 Y86.842 E0.02801
G1 X139.713 Y87.625 E0.02491
G1 X139.521 Y88.431 E0.02596
G1 X139.271 Y89.236 E0.02645
G1 X138.966 Y90.026 E0.02655
G1 X138.607 Y90.794 E0.02656
G1 X138.197 Y91.535 E0.02657
G1 X137.737 Y92.248 E0.02660
G1 X137.248 Y92.903 E0.02564
G1 X136.717 Y93.526 E0.02566
G1 X136.127 Y94.129 E0.02646
G1 X135.172 Y94.961 E0.03972
G1 X135.853 Y95.496 E0.02715
G1 X136.457 Y96.038 E0.02544
G1 X137.048 Y96.644 E0.02656
G1 X137.597 Y97.290 E0.02658
G1 X138.094 Y97.964 E0.02625
G1 X138.564 Y98.700 E0.02739
G1 X138.961 Y99.428 E0.02600
G1 X139.302 Y100.168 E0.02556
G1 X139.595 Y100.929 E0.02556
G1 X139.834 Y101.699 E0.02528
G1 X140.029 Y102.510 E0.02614
G1 X140.169 Y103.331 E0.02612
G1 X140.253 Y104.159 E0.02607
G1 X140.281 Y104.987 E0.02599
G1 X140.254 Y105.818 E0.02607
G1 X140.173 Y106.637 E0.02580
G1 X140.030 Y107.485 E0.02697
G1 X139.839 Y108.283 E0.02573
G1 X139.592 Y109.078 E0.02610
G1 X139.287 Y109.868 E0.02656
G1 X138.934 Y110.625 E0.02618
G1 X138.531 Y111.355 E0.02613
G1 X138.080 Y112.057 E0.02614
G1 X137.575 Y112.737 E0.02659
G1 X137.025 Y113.381 E0.02656
G1 X136.571 Y113.845 E0.02034
G1 X137.109 Y114.392 E0.02406
G1 X137.648 Y115.028 E0.02614
G1 X138.142 Y115.699 E0.02612
G1 X138.590 Y116.400 E0.02609
G1 X138.988 Y117.126 E0.02597
G1 X139.333 Y117.867 E0.02561
G1 X139.632 Y118.643 E0.02610
G1 X139.876 Y119.424 E0.02562
G1 X140.067 Y120.218 E0.02563
G1 X140.208 Y121.041 E0.02617
G1 X140.294 Y121.884 E0.02657
G1 X140.323 Y122.703 E0.02568
G1 X140.298 Y123.520 E0.02566
G1 X140.216 Y124.349 E0.02610
G1 X140.082 Y125.159 E0.02574
G1 X139.892 Y125.970 E0.02611
G1 X139.642 Y126.781 E0.02660
G1 X139.306 Y127.646 E0.02912
G1 X138.957 Y128.387 E0.02566
G1 X138.560 Y129.102 E0.02565
G1 X138.100 Y129.814 E0.02658
G1 X137.593 Y130.492 E0.02655
G1 X137.061 Y131.113 E0.02562
G1 X136.489 Y131.697 E0.02565
G1 X135.867 Y132.253 E0.02616
G1 X135.219 Y132.759 E0.02578
G1 X134.540 Y133.220 E0.02572
G1 X133.824 Y133.640 E0.02604
G1 X133.092 Y134.006 E0.02565
G1 X132.336 Y134.323 E0.02573
G1 X131.487 Y134.613 E0.02812
G1 X130.723 Y134.816 E0.02478
G1 X129.948 Y134.971 E0.02479
G1 X129.074 Y135.085 E0.02762
G1 X128.060 Y135.136 E0.03184
G1 X127.157 Y135.981 E0.03878
G1 X126.176 Y136.503 E0.03484
G1 X125.127 Y136.769 E0.03391
G1 X124.155 Y136.777 E0.03050
G1 X123.871 Y136.808 E0.00894
G1 X113.371 Y136.808 E0.32922
G1 X113.085 Y136.777 E0.00904
G1 X111.135 Y136.737 E0.06114
G1 X110.371 Y136.528 E0.02484
G1 X109.656 Y136.198 E0.02470
G1 X108.461 Y135.187 E0.04905
G1 X107.707 Y134.053 E0.04273
G1 X107.326 Y132.712 E0.04369
G1 X107.309 Y115.102 E0.55215
G1 X107.268 Y114.783 E0.01008
G1 X107.276 Y96.250 E0.58110
G1 X106.947 Y95.036 E0.03943
G1 X106.990 Y76.033 E0.59585
G1 X107.374 Y74.762 E0.04162
G1 X108.090 Y73.641 E0.04170
G1 X108.781 Y72.973 E0.03014
G1 X109.466 Y72.494 E0.02622
G1 X110.933 Y71.975 E0.04879
G1 X123.679 Y71.919 E0.39965
G1 X123.797 Y71.936 E0.00372
G1 X124.756 Y71.946 E0.03007
G1 X125.628 Y72.142 E0.02802
G1 X126.662 Y72.642 E0.03601
G1 X126.779 Y72.733 E0.00465
G1 X126.708 Y73.162 F10800.000
G1 F1200
G1 X127.082 Y73.131 E0.01178
G1 X127.868 Y73.126 E0.02464
G1 X128.660 Y73.174 E0.02486
G1 X129.485 Y73.279 E0.02609
G1 X130.302 Y73.441 E0.02610
G1 X131.029 Y73.637 E0.02359
G1 X131.742 Y73.877 E0.02359
G1 X132.527 Y74.200 E0.02661
G1 X133.282 Y74.576 E0.02645
G1 X133.979 Y74.985 E0.02533
G1 X134.677 Y75.461 E0.02648
G1 X135.293 Y75.945 E0.02457
G1 X135.882 Y76.475 E0.02487
G1 X136.435 Y77.042 E0.02482
G1 X136.960 Y77.657 E0.02532
G1 X137.449 Y78.315 E0.02573
G1 X137.899 Y79.018 E0.02617
G1 X138.307 Y79.763 E0.02663
G1 X138.643 Y80.496 E0.02527
G1 X138.922 Y81.223 E0.02442
G1 X139.150 Y81.957 E0.02408
G1 X139.348 Y82.788 E0.02680
G1 X139.473 Y83.530 E0.02360
G1 X139.551 Y84.278 E0.02357
G1 X139.583 Y85.107 E0.02602
G1 X139.558 Y85.935 E0.02597
G1 X139.471 Y86.798 E0.02719
G1 X139.342 Y87.556 E0.02412
G1 X139.156 Y88.337 E0.02518
G1 X138.913 Y89.118 E0.02565
G1 X138.617 Y89.884 E0.02575
G1 X138.274 Y90.617 E0.02536
G1 X137.877 Y91.336 E0.02576
G1 X137.431 Y92.028 E0.02580
G1 X136.957 Y92.663 E0.02486
G1 X136.442 Y93.267 E0.02487
G1 X135.870 Y93.854 E0.02571
G1 X135.290 Y94.373 E0.02441
G1 X134.522 Y94.978 E0.03067
G1 X134.968 Y95.281 E0.01690
G1 X135.606 Y95.781 E0.02541
G1 X136.200 Y96.314 E0.02504
G1 X136.765 Y96.894 E0.02537
G1 X137.297 Y97.520 E0.02577
G1 X137.787 Y98.182 E0.02584
G1 X138.236 Y98.886 E0.02618
G1 X138.621 Y99.592 E0.02521
G1 X138.953 Y100.310 E0.02478
G1 X139.237 Y101.048 E0.02479
G1 X139.469 Y101.793 E0.02450
G1 X139.661 Y102.592 E0.02574
G1 X139.796 Y103.388 E0.02532
G1 X139.877 Y104.190 E0.02527
G1 X139.904 Y104.993 E0.02520
G1 X139.878 Y105.799 E0.02529
G1 X139.798 Y106.593 E0.02501
G1 X139.662 Y107.404 E0.02578
G1 X139.474 Y108.189 E0.02533
G1 X139.234 Y108.960 E0.02531
G1 X138.942 Y109.715 E0.02537
G1 X138.600 Y110.449 E0.02539
G1 X138.210 Y111.157 E0.02534
G1 X137.774 Y111.837 E0.02534
G1 X137.276 Y112.507 E0.02618
G1 X136.742 Y113.131 E0.02574
G1 X136.042 Y113.846 E0.03137
G1 X136.826 Y114.641 E0.03502
G1 X137.348 Y115.257 E0.02532
G1 X137.828 Y115.907 E0.02533
G1 X138.263 Y116.587 E0.02530
G1 X138.649 Y117.291 E0.02518
G1 X138.988 Y118.020 E0.02521
G1 X139.278 Y118.773 E0.02530
G1 X139.514 Y119.530 E0.02484
G1 X139.699 Y120.300 E0.02485
G1 X139.835 Y121.098 E0.02538
G1 X139.918 Y121.904 E0.02538
G1 X139.946 Y122.709 E0.02528
G1 X139.921 Y123.502 E0.02487
G1 X139.842 Y124.306 E0.02532
G1 X139.711 Y125.091 E0.02495
G1 X139.526 Y125.877 E0.02532
G1 X139.284 Y126.663 E0.02579
G1 X138.962 Y127.492 E0.02787
G1 X138.624 Y128.209 E0.02487
G1 X138.240 Y128.903 E0.02486
G1 X137.794 Y129.594 E0.02577
G1 X137.303 Y130.252 E0.02576
G1 X136.787 Y130.853 E0.02484
G1 X136.233 Y131.420 E0.02487
G1 X135.630 Y131.960 E0.02537
G1 X134.992 Y132.458 E0.02538
G1 X134.334 Y132.904 E0.02493
G1 X133.650 Y133.305 E0.02487
G1 X132.940 Y133.660 E0.02486
G1 X132.196 Y133.973 E0.02533
G1 X131.383 Y134.250 E0.02691
G1 X130.632 Y134.450 E0.02439
G1 X129.880 Y134.600 E0.02402
G1 X129.043 Y134.709 E0.02647
G1 X128.286 Y134.756 E0.02379
G1 X127.915 Y134.754 E0.01162
G1 X126.955 Y135.662 E0.04143
G1 X126.059 Y136.144 E0.03192
G1 X125.101 Y136.392 E0.03103
G1 X124.132 Y136.400 E0.03039
G1 X123.860 Y136.431 E0.00856
G1 X113.382 Y136.431 E0.32853
G1 X113.109 Y136.400 E0.00862
G1 X111.210 Y136.367 E0.05955
G1 X110.514 Y136.179 E0.02260
G1 X109.838 Y135.866 E0.02337
G1 X108.727 Y134.919 E0.04579
G1 X108.038 Y133.870 E0.03933
G1 X107.703 Y132.686 E0.03859
G1 X107.686 Y115.076 E0.55216
G1 X107.645 Y114.770 E0.00967
G1 X107.653 Y96.198 E0.58231
G1 X107.324 Y95.011 E0.03863
G1 X107.360 Y76.113 E0.59252
G1 X107.707 Y74.941 E0.03833
G1 X108.369 Y73.897 E0.03877
G1 X109.032 Y73.255 E0.02894
G1 X109.660 Y72.819 E0.02397
G1 X111.027 Y72.342 E0.04542
G1 X123.638 Y72.294 E0.39542
G1 X123.768 Y72.313 E0.00412
G1 X124.693 Y72.318 E0.02899
G1 X125.523 Y72.505 E0.02667
G1 X126.473 Y72.970 E0.03317
G1 X126.662 Y73.124 E0.00762
G1 X126.580 Y73.551 F10800.000
G1 F1200
G1 X127.092 Y73.508 E0.01611
G1 X127.864 Y73.503 E0.02421
G1 X128.631 Y73.550 E0.02408
G1 X129.419 Y73.650 E0.02490
G1 X130.211 Y73.807 E0.02532
G1 X130.914 Y73.996 E0.02283
G1 X131.615 Y74.232 E0.02321
G1 X132.376 Y74.546 E0.02582
G1 X133.108 Y74.911 E0.02562
G1 X133.783 Y75.307 E0.02453
G1 X134.448 Y75.761 E0.02528
G1 X135.054 Y76.238 E0.02417
G1 X135.626 Y76.752 E0.02409
G1 X136.161 Y77.301 E0.02404
G1 X136.668 Y77.896 E0.02454
G1 X137.142 Y78.535 E0.02493
G1 X137.578 Y79.216 E0.02536
G1 X137.967 Y79.927 E0.02541
G1 X138.294 Y80.636 E0.02449
G1 X138.564 Y81.341 E0.02365
G1 X138.788 Y82.062 E0.02369
G1 X138.977 Y82.857 E0.02561
G1 X139.100 Y83.587 E0.02321
G1 X139.175 Y84.311 E0.02281
G1 X139.206 Y85.115 E0.02524
G1 X139.182 Y85.917 E0.02514
G1 X139.097 Y86.753 E0.02636
G1 X138.971 Y87.486 E0.02332
G1 X138.794 Y88.231 E0.02401
G1 X138.555 Y89.000 E0.02524
G1 X138.267 Y89.742 E0.02495
G1 X137.936 Y90.451 E0.02455
G1 X137.556 Y91.137 E0.02457
G1 X137.124 Y91.808 E0.02500
G1 X136.666 Y92.424 E0.02407
G1 X136.168 Y93.008 E0.02408
G1 X135.613 Y93.577 E0.02492
G1 X135.043 Y94.089 E0.02402
G1 X134.460 Y94.547 E0.02327
G1 X133.838 Y94.973 E0.02360
G1 X134.741 Y95.582 E0.03414
G1 X135.359 Y96.066 E0.02460
G1 X135.944 Y96.590 E0.02464
G1 X136.490 Y97.152 E0.02458
G1 X136.998 Y97.749 E0.02457
G1 X137.480 Y98.401 E0.02543
G1 X137.914 Y99.084 E0.02536
G1 X138.281 Y99.756 E0.02403
G1 X138.603 Y100.451 E0.02401
G1 X138.879 Y101.166 E0.02401
G1 X139.104 Y101.888 E0.02371
G1 X139.293 Y102.674 E0.02534
G1 X139.423 Y103.445 E0.02452
G1 X139.500 Y104.209 E0.02409
G1 X139.527 Y104.988 E0.02442
G1 X139.502 Y105.768 E0.02449
G1 X139.424 Y106.549 E0.02461
G1 X139.293 Y107.322 E0.02458
G1 X139.112 Y108.084 E0.02454
G1 X138.880 Y108.830 E0.02452
G1 X138.598 Y109.562 E0.02458
G1 X138.267 Y110.273 E0.02459
G1 X137.883 Y110.969 E0.02494
G1 X137.460 Y111.628 E0.02454
G1 X136.985 Y112.267 E0.02498
G1 X136.468 Y112.872 E0.02494
G1 X135.923 Y113.429 E0.02444
G1 X135.451 Y113.846 E0.01974
G1 X135.986 Y114.317 E0.02234
G1 X136.542 Y114.889 E0.02502
G1 X137.049 Y115.486 E0.02455
G1 X137.514 Y116.116 E0.02453
G1 X137.935 Y116.774 E0.02451
G1 X138.310 Y117.456 E0.02439
G1 X138.638 Y118.162 E0.02442
G1 X138.920 Y118.892 E0.02452
G1 X139.149 Y119.624 E0.02406
G1 X139.328 Y120.370 E0.02406
G1 X139.463 Y121.155 E0.02498
G1 X139.542 Y121.935 E0.02458
G1 X139.569 Y122.716 E0.02449
G1 X139.544 Y123.484 E0.02408
G1 X139.467 Y124.262 E0.02453
G1 X139.340 Y125.023 E0.02417
G1 X139.161 Y125.784 E0.02453
G1 X138.925 Y126.545 E0.02498
G1 X138.618 Y127.337 E0.02663
G1 X138.291 Y128.032 E0.02408
G1 X137.920 Y128.704 E0.02407
G1 X137.488 Y129.373 E0.02497
G1 X137.012 Y130.011 E0.02496
G1 X136.513 Y130.594 E0.02406
G1 X135.977 Y131.144 E0.02409
G1 X135.393 Y131.667 E0.02457
G1 X134.775 Y132.150 E0.02458
G1 X134.127 Y132.589 E0.02453
G1 X133.464 Y132.977 E0.02409
G1 X132.777 Y133.320 E0.02408
G1 X132.056 Y133.623 E0.02454
G1 X131.280 Y133.887 E0.02570
G1 X130.552 Y134.082 E0.02361
G1 X129.813 Y134.229 E0.02363
G1 X129.013 Y134.333 E0.02529
G1 X128.269 Y134.380 E0.02338
G1 X127.712 Y134.374 E0.01747
G1 X127.593 Y134.540 E0.00639
G1 X126.752 Y135.343 E0.03646
G1 X125.939 Y135.786 E0.02902
G1 X125.073 Y136.015 E0.02809
G1 X124.107 Y136.024 E0.03029
G1 X123.849 Y136.054 E0.00816
G1 X113.394 Y136.054 E0.32780
G1 X113.134 Y136.023 E0.00819
G1 X111.286 Y135.997 E0.05798
G1 X110.629 Y135.819 E0.02133
G1 X110.021 Y135.536 E0.02102
G1 X108.993 Y134.650 E0.04256
G1 X108.392 Y133.738 E0.03426
G1 X108.080 Y132.659 E0.03522
G1 X108.064 Y115.048 E0.55217
G1 X108.022 Y114.756 E0.00924
G1 X108.030 Y96.145 E0.58353
G1 X107.701 Y94.985 E0.03783
G1 X107.729 Y76.194 E0.58915
G1 X108.061 Y75.073 E0.03666
G1 X108.647 Y74.152 E0.03423
G1 X109.283 Y73.537 E0.02775
G1 X109.852 Y73.144 E0.02169
G1 X111.120 Y72.708 E0.04204
G1 X123.598 Y72.669 E0.39123
G1 X123.741 Y72.690 E0.00455
G1 X124.631 Y72.691 E0.02790
G1 X125.418 Y72.868 E0.02528
G1 X126.283 Y73.296 E0.03026
G1 X126.535 Y73.512 E0.01041
G1 X126.449 Y73.941 F10800.000
G1 F1200
G1 X127.102 Y73.885 E0.02056
G1 X127.860 Y73.880 E0.02377
G1 X128.602 Y73.926 E0.02329
G1 X129.352 Y74.021 E0.02371
G1 X130.119 Y74.173 E0.02452
G1 X130.811 Y74.358 E0.02245
G1 X131.489 Y74.587 E0.02244
G1 X132.226 Y74.892 E0.02502
G1 X132.934 Y75.245 E0.02479
G1 X133.586 Y75.628 E0.02372
G1 X134.221 Y76.062 E0.02409
G1 X134.807 Y76.522 E0.02339
G1 X135.369 Y77.028 E0.02369
G1 X135.886 Y77.559 E0.02326
G1 X136.377 Y78.136 E0.02375
G1 X136.835 Y78.754 E0.02413
G1 X137.250 Y79.403 E0.02415
G1 X137.627 Y80.091 E0.02460
G1 X137.944 Y80.777 E0.02370
G1 X138.209 Y81.470 E0.02326
G1 X138.426 Y82.168 E0.02291
G1 X138.606 Y82.926 E0.02443
G1 X138.725 Y83.632 E0.02245
G1 X138.799 Y84.343 E0.02243
G1 X138.829 Y85.123 E0.02446
G1 X138.805 Y85.898 E0.02432
G1 X138.722 Y86.708 E0.02554
G1 X138.601 Y87.417 E0.02253
G1 X138.432 Y88.126 E0.02285
G1 X138.201 Y88.870 E0.02445
G1 X137.923 Y89.588 E0.02414
G1 X137.602 Y90.275 E0.02376
G1 X137.236 Y90.938 E0.02377
G1 X136.811 Y91.598 E0.02460
G1 X136.367 Y92.193 E0.02328
G1 X135.893 Y92.750 E0.02292
G1 X135.356 Y93.301 E0.02413
G1 X134.805 Y93.796 E0.02324
G1 X134.231 Y94.247 E0.02287
