; generated by PrusaSlicer 2.0.0+win64 on 2019-06-18 at 13:06:35

; 

; external perimeters extrusion width = 0.45mm
; perimeters extrusion width = 0.45mm
; infill extrusion width = 0.45mm
; solid infill extrusion width = 0.45mm
; top infill extrusion width = 0.40mm
; support material extrusion width = 0.35mm
; first layer extrusion width = 0.42mm

M73 P0 R55
M73 Q0 S55
M201 X1000 Y1000 Z1000 E5000 ; sets maximum accelerations, mm/sec^2
M203 X200 Y200 Z12 E120 ; sets maximum feedrates, mm/sec
M204 P1250 R1250 T1250 ; sets acceleration (P, T) and retract acceleration (R), mm/sec^2
M205 X8.00 Y8.00 Z0.40 E1.50 ; sets the jerk limits, mm/sec
M205 S0 T0 ; sets the minimum extruding and travel feed rate, mm/sec
M107
M115 U3.7.1 ; tell printer latest fw version
G90 ; use absolute coordinates
M83 ; extruder relative mode
M104 S215 ; set extruder temp
M140 S60 ; set bed temp
M190 S60 ; wait for bed temp
M109 S215 ; wait for extruder temp
G28 W ; home all without mesh bed level
G80 ; mesh bed leveling
G1 Y-3.0 F1000.0 ; go outside print area
G92 E0.0
G1 X60.0 E9.0 F1000.0 ; intro line
M73 Q0 S55
M73 P0 R55
G1 X100.0 E12.5 F1000.0 ; intro line
G92 E0.0
M221 S95
M900 K30 ; Filament gcode
G21 ; set units to millimeters
G90 ; use absolute coordinates
M83 ; use relative distances for extrusion
;BEFORE_LAYER_CHANGE
G92 E0.0
;0.2


G1 E-0.80000 F2100.00000
G1 Z0.600 F10800.000
;AFTER_LAYER_CHANGE
;0.2
G1 X119.970 Y99.213
G1 Z0.200
G1 E0.80000 F2100.00000
M204 S1000
G1 F1200
G1 X122.216 Y95.994 E0.12310
G1 X141.664 Y74.523 E0.90831
G1 X142.195 Y74.022 E0.02288
G1 X142.787 Y73.606 E0.02270
G1 X143.951 Y73.090 E0.03992
G1 X145.206 Y72.879 E0.03992
G1 X160.632 Y72.875 E0.48366
G1 X185.963 Y73.181 E0.79430
G1 X186.767 Y73.257 E0.02532
G1 X188.120 Y73.695 E0.04460
G1 X189.299 Y74.491 E0.04460
G1 X191.865 Y77.370 E0.12092
G1 X192.553 Y78.474 E0.04078
G1 X192.821 Y79.206 E0.02444
G1 X192.975 Y79.970 E0.02444
G1 X195.130 Y99.559 E0.61791
G1 X195.139 Y117.739 E0.57002
G1 X194.110 Y134.291 E0.51997
G1 X194.010 Y135.027 E0.02330
G1 X193.589 Y136.337 E0.04314
G1 X192.874 Y137.484 E0.04237
G1 X192.001 Y138.356 E0.03870
G1 X190.840 Y139.076 E0.04282
G1 X189.661 Y139.468 E0.03894
G1 X188.506 Y139.604 E0.03646
G1 X145.632 Y139.605 E1.34429
G1 X144.841 Y139.542 E0.02489
G1 X144.110 Y139.383 E0.02345
G1 X143.054 Y138.960 E0.03566
G1 X142.217 Y138.431 E0.03106
G1 X123.431 Y123.294 E0.75644
G1 X120.609 Y120.434 E0.12598
G1 X120.154 Y119.835 E0.02357
G1 X119.792 Y119.176 E0.02357
G1 X119.463 Y118.207 E0.03210
G1 X119.334 Y117.186 E0.03228
G1 X119.360 Y101.152 E0.50274
G1 X119.568 Y100.149 E0.03210
G1 X119.946 Y99.269 E0.03005
G1 F8640
G1 X121.821 Y96.564 E-0.76000
G1 E-0.04000 F2100.00000
G1 Z0.800 F10800.000
G1 X165.978 Y76.704
G1 Z0.200
G1 E0.80000 F2100.00000
G1 F1200
G1 X166.649 Y75.449 E0.04462
G1 X167.656 Y74.391 E0.04581
G1 X168.831 Y73.711 E0.04255
G1 X170.024 Y73.400 E0.03867
G1 X186.205 Y73.368 E0.50735
G1 X187.088 Y73.491 E0.02795
G1 X188.562 Y74.140 E0.05049
G1 X189.799 Y75.289 E0.05293
G1 X190.401 Y76.364 E0.03864
G1 X190.770 Y76.580 E0.01340
G1 X191.869 Y77.653 E0.04814
G1 X192.525 Y78.851 E0.04283
G1 X192.825 Y80.220 E0.04395
G1 X192.825 Y95.839 E0.48972
G1 X192.976 Y95.940 E0.00572
G1 X193.891 Y96.826 E0.03992
G1 X194.467 Y97.727 E0.03354
G1 X194.953 Y99.411 E0.05496
G1 X194.953 Y118.104 E0.58610
G1 X194.590 Y119.494 E0.04503
G1 X194.102 Y120.342 E0.03069
G1 X193.493 Y120.972 E0.02747
G1 X193.476 Y134.458 E0.42283
G1 X193.178 Y135.682 E0.03950
G1 X192.543 Y136.882 E0.04258
G1 X191.610 Y137.873 E0.04267
G1 X190.434 Y138.567 E0.04283
G1 X188.707 Y138.991 E0.05577
G1 X184.559 Y138.975 E0.13003
G1 X145.373 Y138.988 E1.22867
G1 X144.177 Y138.758 E0.03817
G1 X142.874 Y138.125 E0.04543
G1 X141.832 Y137.227 E0.04312
G1 X141.018 Y135.882 E0.04930
G1 X140.666 Y134.574 E0.04246
G1 X140.617 Y124.116 E0.32791
G1 X139.336 Y124.087 E0.04016
G1 X139.099 Y124.112 E0.00750
G1 X127.092 Y124.112 E0.37647
G1 X126.784 Y124.078 E0.00969
G1 X125.409 Y124.002 E0.04320
G1 X124.400 Y123.639 E0.03361
G1 X123.564 Y123.096 E0.03126
G1 X122.603 Y122.085 E0.04373
G1 X122.178 Y121.305 E0.02785
G1 X121.394 Y120.858 E0.02828
G1 X120.604 Y120.095 E0.03444
G1 X119.943 Y119.087 E0.03781
G1 X119.521 Y117.597 E0.04855
G1 X119.521 Y101.212 E0.51376
G1 X120.016 Y99.480 E0.05649
G1 X120.543 Y98.664 E0.03044
G1 X121.374 Y97.813 E0.03729
G1 X121.458 Y97.554 E0.00854
G1 X122.102 Y96.401 E0.04143
G1 X122.737 Y95.721 E0.02915
G1 X123.428 Y95.173 E0.02766
G1 X125.533 Y94.460 E0.06967
G1 X138.905 Y94.462 E0.41926
G1 X138.944 Y79.545 E0.46770
G1 X139.250 Y78.422 E0.03651
G1 X139.834 Y77.377 E0.03753
G1 X140.740 Y76.466 E0.04026
G1 X140.823 Y76.197 E0.00885
G1 X141.376 Y75.157 E0.03693
G1 X142.653 Y73.890 E0.05640
G1 X143.813 Y73.312 E0.04064
G1 X145.033 Y73.063 E0.03904
G1 X161.016 Y73.066 E0.50112
G1 X162.259 Y73.324 E0.03981
G1 X163.545 Y74.006 E0.04565
G1 X164.622 Y75.096 E0.04804
G1 X165.146 Y76.071 E0.03470
G1 X165.548 Y76.302 E0.01453
G1 X165.934 Y76.663 E0.01659
G1 F8640
G1 X166.649 Y75.449 E-0.32532
G1 X167.656 Y74.391 E-0.33738
G1 X168.021 Y74.180 E-0.09730
G1 E-0.04000 F2100.00000
G1 Z0.800 F10800.000
G1 X164.863 Y76.343
G1 Z0.200
G1 E0.80000 F2100.00000
G1 F1200
G1 X165.338 Y76.617 E0.01720
G1 X166.017 Y77.271 E0.02956
G1 X166.344 Y76.957 E0.01421
G1 X166.434 Y76.651 E0.00999
G1 X166.941 Y75.688 E0.03413
G1 X167.869 Y74.703 E0.04242
G1 X168.997 Y74.051 E0.04085
G1 X170.094 Y73.771 E0.03551
G1 X186.193 Y73.745 E0.50475
G1 X187.009 Y73.860 E0.02586
G1 X188.379 Y74.471 E0.04702
G1 X189.519 Y75.542 E0.04904
G1 X190.122 Y76.640 E0.03929
G1 X190.526 Y76.869 E0.01457
G1 X191.552 Y77.859 E0.04469
G1 X192.181 Y79.008 E0.04106
G1 X192.448 Y80.240 E0.03952
G1 X192.447 Y96.058 E0.49598
G1 X192.733 Y96.229 E0.01042
G1 X193.612 Y97.081 E0.03838
G1 X194.134 Y97.906 E0.03060
G1 X194.575 Y99.438 E0.04999
G1 X194.575 Y118.080 E0.58452
G1 X194.250 Y119.328 E0.04042
G1 X193.787 Y120.133 E0.02912
G1 X193.116 Y120.817 E0.03006
G1 X193.104 Y134.392 E0.42563
G1 X192.833 Y135.529 E0.03663
G1 X192.251 Y136.643 E0.03941
G1 X191.355 Y137.594 E0.04098
G1 X190.268 Y138.228 E0.03944
G1 X188.685 Y138.614 E0.05109
G1 X184.560 Y138.598 E0.12934
G1 X145.391 Y138.611 E1.22811
G1 X144.275 Y138.393 E0.03567
G1 X143.063 Y137.798 E0.04233
G1 X142.103 Y136.963 E0.03989
G1 X141.356 Y135.713 E0.04568
G1 X141.037 Y134.502 E0.03925
G1 X140.993 Y123.735 E0.33760
G1 X139.947 Y123.735 E0.03278
G1 X139.325 Y123.709 E0.01952
G1 X139.088 Y123.735 E0.00748
G1 X127.103 Y123.735 E0.37578
G1 X126.815 Y123.702 E0.00908
G1 X125.508 Y123.637 E0.04103
G1 X124.585 Y123.309 E0.03072
G1 X123.821 Y122.820 E0.02844
G1 X122.895 Y121.844 E0.04218
G1 X122.458 Y121.030 E0.02896
G1 X121.638 Y120.570 E0.02949
G1 X120.880 Y119.838 E0.03302
G1 X120.297 Y118.954 E0.03321
G1 X119.898 Y117.570 E0.04516
G1 X119.898 Y101.238 E0.51209
G1 X120.349 Y99.660 E0.05147
G1 X120.829 Y98.911 E0.02789
G1 X121.531 Y98.177 E0.03185
G1 X121.692 Y98.062 E0.00619
G1 X121.799 Y97.718 E0.01130
G1 X122.394 Y96.641 E0.03860
G1 X123.003 Y95.990 E0.02795
G1 X123.636 Y95.489 E0.02531
G1 X125.564 Y94.837 E0.06379
G1 X139.281 Y94.839 E0.43009
G1 X139.314 Y79.620 E0.47717
G1 X139.608 Y78.544 E0.03498
G1 X140.149 Y77.586 E0.03451
G1 X141.075 Y76.665 E0.04096
G1 X141.166 Y76.353 E0.01018
G1 X141.664 Y75.402 E0.03365
G1 X142.851 Y74.212 E0.05268
G1 X143.915 Y73.676 E0.03736
G1 X145.053 Y73.440 E0.03644
G1 X160.997 Y73.443 E0.49992
G1 X162.107 Y73.670 E0.03551
G1 X163.342 Y74.325 E0.04386
G1 X164.333 Y75.339 E0.04444
G1 X164.835 Y76.290 E0.03371
G1 X164.580 Y76.618 F10800.000
G1 F1200
G1 X165.095 Y76.906 E0.01850
G1 X166.035 Y77.812 E0.04093
G1 X166.507 Y77.315 E0.02149
G1 X166.669 Y77.198 E0.00626
G1 X166.777 Y76.808 E0.01269
G1 X167.262 Y75.887 E0.03263
G1 X168.122 Y74.984 E0.03911
G1 X169.160 Y74.392 E0.03745
G1 X170.162 Y74.143 E0.03239
G1 X186.179 Y74.123 E0.50220
G1 X186.929 Y74.230 E0.02374
G1 X188.194 Y74.801 E0.04352
G1 X189.236 Y75.793 E0.04514
G1 X189.844 Y76.918 E0.04008
G1 X190.286 Y77.160 E0.01580
G1 X191.235 Y78.066 E0.04116
G1 X191.837 Y79.164 E0.03926
G1 X192.070 Y80.259 E0.03510
G1 X192.070 Y96.281 E0.50235
G1 X192.489 Y96.518 E0.01509
G1 X193.333 Y97.336 E0.03682
G1 X193.800 Y98.083 E0.02763
G1 X194.198 Y99.464 E0.04508
G1 X194.198 Y118.056 E0.58293
G1 X193.911 Y119.162 E0.03582
G1 X193.473 Y119.923 E0.02754
G1 X192.701 Y120.698 E0.03430
G1 X192.742 Y120.958 E0.00825
G1 X192.732 Y134.328 E0.41919
G1 X192.487 Y135.377 E0.03379
G1 X191.957 Y136.405 E0.03627
G1 X191.140 Y137.282 E0.03757
G1 X190.102 Y137.888 E0.03769
G1 X188.664 Y138.237 E0.04640
G1 X184.561 Y138.221 E0.12865
G1 X145.410 Y138.234 E1.22755
G1 X144.373 Y138.028 E0.03313
G1 X143.253 Y137.472 E0.03922
G1 X142.375 Y136.701 E0.03665
G1 X141.695 Y135.545 E0.04204
G1 X141.408 Y134.431 E0.03606
G1 X141.368 Y123.358 E0.34720
G1 X139.951 Y123.358 E0.04444
G1 X139.311 Y123.331 E0.02009
G1 X139.076 Y123.358 E0.00740
G1 X127.114 Y123.358 E0.37506
G1 X126.845 Y123.326 E0.00849
G1 X125.605 Y123.272 E0.03892
G1 X124.767 Y122.979 E0.02784
G1 X124.078 Y122.543 E0.02557
G1 X123.187 Y121.604 E0.04059
G1 X122.740 Y120.754 E0.03010
G1 X121.882 Y120.280 E0.03073
G1 X121.157 Y119.581 E0.03159
G1 X120.650 Y118.820 E0.02866
G1 X120.275 Y117.543 E0.04174
G1 X120.275 Y101.264 E0.51041
G1 X120.682 Y99.838 E0.04649
G1 X121.114 Y99.158 E0.02528
G1 X121.787 Y98.455 E0.03053
G1 X122.015 Y98.302 E0.00860
G1 X122.140 Y97.880 E0.01380
G1 X122.686 Y96.881 E0.03570
G1 X123.268 Y96.258 E0.02674
G1 X123.844 Y95.806 E0.02295
G1 X125.594 Y95.214 E0.05793
G1 X139.657 Y95.216 E0.44093
G1 X139.685 Y79.693 E0.48670
G1 X139.948 Y78.708 E0.03197
G1 X140.464 Y77.795 E0.03290
G1 X141.413 Y76.862 E0.04171
G1 X141.511 Y76.506 E0.01158
G1 X141.954 Y75.646 E0.03034
G1 X143.050 Y74.534 E0.04896
G1 X144.018 Y74.039 E0.03407
G1 X145.073 Y73.817 E0.03381
G1 X160.979 Y73.820 E0.49872
G1 X161.957 Y74.016 E0.03127
G1 X163.094 Y74.611 E0.04024
G1 X164.043 Y75.582 E0.04258
G1 X164.552 Y76.564 E0.03469
G1 X164.247 Y76.866 F10800.000
G1 F1200
G1 X164.852 Y77.196 E0.02162
G1 X165.668 Y77.982 E0.03551
G1 X165.936 Y78.463 E0.01728
G1 X166.765 Y77.591 E0.03770
G1 X166.997 Y77.432 E0.00883
G1 X167.122 Y76.961 E0.01528
G1 X167.554 Y76.127 E0.02945
G1 X168.375 Y75.264 E0.03735
G1 X169.321 Y74.734 E0.03399
G1 X170.229 Y74.514 E0.02929
G1 X186.171 Y74.500 E0.49987
G1 X186.847 Y74.599 E0.02141
G1 X188.007 Y75.130 E0.03999
G1 X188.952 Y76.043 E0.04123
G1 X189.452 Y76.976 E0.03317
G1 X189.510 Y77.169 E0.00632
G1 X190.047 Y77.454 E0.01905
G1 X190.919 Y78.274 E0.03755
G1 X191.493 Y79.321 E0.03742
G1 X191.693 Y80.278 E0.03067
G1 X191.693 Y96.507 E0.50883
G1 X192.248 Y96.809 E0.01979
G1 X193.027 Y97.558 E0.03390
G1 X193.446 Y98.216 E0.02445
G1 X193.821 Y99.492 E0.04170
G1 X193.821 Y118.032 E0.58132
M73 Q1 S54
M73 P1 R54
G1 X193.570 Y118.998 E0.03130
G1 X193.187 Y119.675 E0.02439
G1 X192.295 Y120.571 E0.03964
G1 X192.365 Y120.976 E0.01286
G1 X192.359 Y134.265 E0.41668
G1 X192.140 Y135.228 E0.03097
G1 X191.662 Y136.168 E0.03306
G1 X190.884 Y137.004 E0.03581
G1 X189.938 Y137.548 E0.03420
G1 X188.643 Y137.860 E0.04178
G1 X184.561 Y137.844 E0.12797
G1 X145.429 Y137.857 E1.22697
G1 X144.474 Y137.664 E0.03056
G1 X143.445 Y137.147 E0.03609
G1 X142.649 Y136.439 E0.03340
G1 X142.035 Y135.380 E0.03839
G1 X141.780 Y134.362 E0.03290
G1 X141.744 Y122.981 E0.35686
G1 X139.955 Y122.981 E0.05610
G1 X139.295 Y122.953 E0.02070
G1 X139.064 Y122.981 E0.00729
G1 X127.126 Y122.981 E0.37431
G1 X126.876 Y122.950 E0.00792
G1 X125.700 Y122.906 E0.03687
G1 X124.947 Y122.647 E0.02497
G1 X124.334 Y122.265 E0.02264
G1 X123.479 Y121.364 E0.03896
G1 X123.108 Y120.644 E0.02542
G1 X123.060 Y120.499 E0.00479
G1 X122.124 Y119.990 E0.03342
G1 X121.457 Y119.351 E0.02895
G1 X121.002 Y118.683 E0.02535
G1 X120.652 Y117.515 E0.03823
G1 X120.652 Y101.290 E0.50870
G1 X121.015 Y100.016 E0.04155
G1 X121.400 Y99.405 E0.02265
G1 X122.042 Y98.733 E0.02913
G1 X122.339 Y98.545 E0.01103
G1 X122.482 Y98.039 E0.01647
G1 X122.978 Y97.120 E0.03275
G1 X123.534 Y96.526 E0.02549
G1 X124.050 Y96.122 E0.02057
G1 X125.625 Y95.592 E0.05210
G1 X140.034 Y95.593 E0.45178
G1 X140.056 Y79.767 E0.49622
G1 X140.306 Y78.830 E0.03042
G1 X140.778 Y78.006 E0.02978
G1 X141.592 Y77.211 E0.03566
G1 X141.737 Y77.113 E0.00550
G1 X141.858 Y76.656 E0.01481
G1 X142.245 Y75.887 E0.02700
G1 X143.251 Y74.854 E0.04522
G1 X144.122 Y74.403 E0.03075
G1 X145.093 Y74.195 E0.03113
G1 X160.961 Y74.197 E0.49752
G1 X161.809 Y74.364 E0.02711
G1 X162.846 Y74.897 E0.03655
G1 X163.753 Y75.825 E0.04071
G1 X164.187 Y76.667 E0.02968
G1 X164.229 Y76.809 E0.00465
G1 X163.923 Y77.123 F10800.000
G1 F1200
G1 X164.611 Y77.486 E0.02439
G1 X165.382 Y78.230 E0.03359
G1 X165.925 Y79.278 E0.03703
G1 X166.215 Y78.717 E0.01979
G1 X167.021 Y77.868 E0.03671
G1 X167.327 Y77.670 E0.01142
G1 X167.468 Y77.115 E0.01796
G1 X167.876 Y76.326 E0.02787
G1 X168.626 Y75.547 E0.03389
G1 X169.479 Y75.077 E0.03053
G1 X170.293 Y74.886 E0.02622
G1 X185.214 Y74.878 E0.46784
G1 X185.338 Y74.891 E0.00392
G1 X186.162 Y74.877 E0.02582
G1 X186.764 Y74.967 E0.01909
G1 X187.817 Y75.457 E0.03643
G1 X188.666 Y76.291 E0.03730
G1 X189.106 Y77.129 E0.02970
G1 X189.187 Y77.428 E0.00970
G1 X189.809 Y77.747 E0.02193
G1 X190.638 Y78.528 E0.03570
G1 X191.147 Y79.474 E0.03371
G1 X191.316 Y80.297 E0.02634
G1 X191.316 Y96.736 E0.51542
G1 X192.008 Y97.101 E0.02452
G1 X192.724 Y97.783 E0.03100
G1 X193.093 Y98.351 E0.02125
G1 X193.444 Y99.520 E0.03826
G1 X193.444 Y118.007 E0.57965
G1 X193.213 Y118.876 E0.02820
G1 X192.874 Y119.465 E0.02129
G1 X192.083 Y120.250 E0.03496
G1 X191.876 Y120.375 E0.00759
G1 X191.988 Y120.993 E0.01969
G1 X191.987 Y134.204 E0.41421
G1 X191.792 Y135.081 E0.02818
G1 X191.366 Y135.934 E0.02988
G1 X190.670 Y136.692 E0.03226
G1 X189.774 Y137.207 E0.03241
G1 X188.622 Y137.483 E0.03714
G1 X184.562 Y137.467 E0.12730
G1 X145.448 Y137.480 E1.22638
G1 X144.575 Y137.300 E0.02795
G1 X143.640 Y136.822 E0.03294
G1 X142.924 Y136.180 E0.03015
G1 X142.376 Y135.218 E0.03472
G1 X142.151 Y134.295 E0.02976
G1 X142.121 Y122.604 E0.36659
G1 X139.971 Y122.604 E0.06738
G1 X139.781 Y122.583 E0.00602
G1 X139.271 Y122.576 E0.01599
G1 X139.052 Y122.604 E0.00692
G1 X127.139 Y122.604 E0.37351
G1 X126.906 Y122.573 E0.00738
G1 X125.794 Y122.539 E0.03489
G1 X125.125 Y122.314 E0.02213
G1 X124.590 Y121.987 E0.01964
G1 X123.772 Y121.125 E0.03726
G1 X123.454 Y120.494 E0.02218
G1 X123.361 Y120.170 E0.01055
G1 X123.120 Y120.104 E0.00781
G1 X122.365 Y119.700 E0.02686
G1 X121.731 Y119.092 E0.02754
G1 X121.354 Y118.543 E0.02088
G1 X121.029 Y117.486 E0.03469
G1 X121.029 Y101.317 E0.50698
G1 X121.349 Y100.192 E0.03665
G1 X121.686 Y99.651 E0.01999
G1 X122.296 Y99.014 E0.02766
G1 X122.664 Y98.791 E0.01348
G1 X122.825 Y98.196 E0.01931
G1 X123.271 Y97.359 E0.02974
G1 X123.799 Y96.795 E0.02421
G1 X124.256 Y96.440 E0.01816
G1 X125.656 Y95.969 E0.04630
G1 X140.411 Y95.970 E0.46264
G1 X140.427 Y79.838 E0.50582
G1 X140.646 Y78.995 E0.02732
G1 X141.091 Y78.217 E0.02811
G1 X141.836 Y77.499 E0.03244
G1 X142.066 Y77.356 E0.00848
G1 X142.204 Y76.806 E0.01776
G1 X142.569 Y76.082 E0.02542
G1 X143.452 Y75.175 E0.03970
G1 X144.273 Y74.749 E0.02899
G1 X145.112 Y74.572 E0.02690
G1 X160.943 Y74.574 E0.49636
G1 X161.664 Y74.713 E0.02302
G1 X162.601 Y75.184 E0.03288
G1 X163.432 Y76.024 E0.03704
G1 X163.841 Y76.819 E0.02804
G1 X163.907 Y77.065 E0.00798
G1 X163.596 Y77.380 F10800.000
G1 F1200
G1 X164.369 Y77.778 E0.02726
G1 X165.096 Y78.478 E0.03165
G1 X165.574 Y79.429 E0.03336
G1 X165.673 Y79.981 E0.01759
G1 X165.675 Y93.375 E0.41996
G1 X166.052 Y93.375 E0.01182
G1 X166.055 Y80.281 E0.41056
G1 X166.183 Y79.641 E0.02045
G1 X166.511 Y78.953 E0.02390
G1 X167.277 Y78.147 E0.03487
G1 X167.657 Y77.910 E0.01405
G1 X167.813 Y77.267 E0.02074
G1 X168.198 Y76.524 E0.02623
G1 X168.875 Y75.832 E0.03036
G1 X169.634 Y75.422 E0.02706
G1 X170.355 Y75.259 E0.02317
G1 X185.202 Y75.255 E0.46553
G1 X185.319 Y75.268 E0.00368
G1 X186.151 Y75.255 E0.02610
G1 X186.678 Y75.336 E0.01672
G1 X187.626 Y75.783 E0.03285
G1 X188.378 Y76.535 E0.03335
G1 X188.760 Y77.280 E0.02623
