; generated by PrusaSlicer 2.0.0+win64 on 2019-06-17 at 15:36:32

; 

; external perimeters extrusion width = 0.45mm
; perimeters extrusion width = 0.45mm
; infill extrusion width = 0.45mm
; solid infill extrusion width = 0.45mm
; top infill extrusion width = 0.40mm
; support material extrusion width = 0.35mm
; first layer extrusion width = 0.42mm

M73 P0 R18
M73 Q0 S18
M201 X1000 Y1000 Z1000 E5000 ; sets maximum accelerations, mm/sec^2
M203 X200 Y200 Z12 E120 ; sets maximum feedrates, mm/sec
M204 P1250 R1250 T1250 ; sets acceleration (P, T) and retract acceleration (R), mm/sec^2
M205 X8.00 Y8.00 Z0.40 E1.50 ; sets the jerk limits, mm/sec
M205 S0 T0 ; sets the minimum extruding and travel feed rate, mm/sec
M107
M115 U3.7.1 ; tell printer latest fw version
G90 ; use absolute coordinates
M83 ; extruder relative mode
M104 S215 ; set extruder temp
M140 S60 ; set bed temp
M190 S60 ; wait for bed temp
M109 S215 ; wait for extruder temp
G28 W ; home all without mesh bed level
G80 ; mesh bed leveling
G1 Y-3.0 F1000.0 ; go outside print area
G92 E0.0
G1 X60.0 E9.0 F1000.0 ; intro line
M73 Q0 S18
M73 P0 R17
G1 X100.0 E12.5 F1000.0 ; intro line
G92 E0.0
M221 S95
M900 K30 ; Filament gcode
G21 ; set units to millimeters
G90 ; use absolute coordinates
M83 ; use relative distances for extrusion
;BEFORE_LAYER_CHANGE
G92 E0.0
;0.2


G1 E-0.80000 F2100.00000
G1 Z0.600 F10800.000
;AFTER_LAYER_CHANGE
;0.2
G1 X124.442 Y97.763
G1 Z0.200
G1 E0.80000 F2100.00000
M204 S1000
G1 F900
G1 X125.124 Y98.324 E0.02767
G1 X125.617 Y99.069 E0.02801
G1 X125.914 Y99.847 E0.02613
G1 X128.012 Y108.615 E0.28265
G1 X128.061 Y110.958 E0.07348
G1 X127.976 Y111.493 E0.01698
G1 X127.792 Y112.007 E0.01712
G1 X127.423 Y112.603 E0.02201
G1 X126.925 Y113.093 E0.02187
G1 X126.327 Y113.451 E0.02187
G1 X125.661 Y113.659 E0.02187
G1 X124.899 Y113.708 E0.02394
G1 X124.045 Y113.644 E0.02685
G1 X122.445 Y113.295 E0.05134
G1 X121.227 Y112.806 E0.04116
G1 X119.813 Y111.935 E0.05207
G1 X118.595 Y110.819 E0.05180
G1 X117.609 Y109.487 E0.05194
G1 X116.917 Y108.059 E0.04975
G1 X116.497 Y106.559 E0.04886
G1 X116.346 Y105.015 E0.04865
G1 X116.476 Y103.451 E0.04921
G1 X116.979 Y101.719 E0.05655
G1 X117.562 Y100.567 E0.04047
G1 X118.032 Y99.872 E0.02631
G1 X118.632 Y99.174 E0.02886
G1 X119.760 Y98.225 E0.04621
G1 X120.493 Y97.797 E0.02662
G1 X121.235 Y97.508 E0.02497
G1 X121.895 Y97.333 E0.02142
G1 X122.626 Y97.284 E0.02294
G1 X123.556 Y97.403 E0.02942
G1 X124.386 Y97.741 E0.02809
G1 X124.245 Y98.088 F10800.000
G1 F900
G1 X124.862 Y98.596 E0.02507
G1 X125.295 Y99.272 E0.02515
G1 X125.548 Y99.941 E0.02245
G1 X127.639 Y108.669 E0.28140
G1 X127.686 Y110.901 E0.07000
G1 X127.472 Y111.801 E0.02900
G1 X127.155 Y112.334 E0.01943
G1 X126.720 Y112.775 E0.01943
G1 X126.191 Y113.099 E0.01943
G1 X125.605 Y113.286 E0.01931
G1 X124.897 Y113.331 E0.02223
G1 X124.080 Y113.268 E0.02570
G1 X122.548 Y112.933 E0.04918
G1 X121.401 Y112.471 E0.03876
G1 X120.043 Y111.636 E0.04998
G1 X118.876 Y110.568 E0.04961
G1 X117.933 Y109.294 E0.04971
G1 X117.270 Y107.926 E0.04766
G1 X116.870 Y106.501 E0.04640
G1 X116.723 Y105.015 E0.04681
G1 X116.846 Y103.524 E0.04692
G1 X117.331 Y101.856 E0.05444
G1 X117.867 Y100.789 E0.03744
G1 X118.901 Y99.439 E0.05335
G1 X119.951 Y98.550 E0.04312
G1 X121.174 Y97.925 E0.04304
G1 X121.904 Y97.714 E0.02383
G1 X122.626 Y97.661 E0.02272
G1 X123.465 Y97.769 E0.02651
G1 X124.189 Y98.065 E0.02453
G1 X124.161 Y98.478 F10800.000
G1 F900
G1 X124.690 Y98.983 E0.02293
G1 X125.066 Y99.691 E0.02515
G1 X127.267 Y108.731 E0.29170
G1 X127.311 Y110.855 E0.06661
G1 X127.149 Y111.597 E0.02383
G1 X126.884 Y112.067 E0.01692
G1 X126.515 Y112.456 E0.01680
G1 X126.059 Y112.745 E0.01692
G1 X125.547 Y112.913 E0.01692
G1 X124.115 Y112.893 E0.04488
G1 X122.651 Y112.570 E0.04702
G1 X121.574 Y112.136 E0.03641
G1 X120.270 Y111.334 E0.04799
G1 X119.154 Y110.313 E0.04742
G1 X118.254 Y109.096 E0.04748
G1 X117.624 Y107.795 E0.04532
G1 X117.243 Y106.445 E0.04400
G1 X117.100 Y105.015 E0.04505
G1 X117.217 Y103.595 E0.04466
G1 X117.682 Y101.993 E0.05231
G1 X118.174 Y101.009 E0.03451
G1 X119.169 Y99.705 E0.05144
G1 X120.145 Y98.874 E0.04018
G1 X121.283 Y98.287 E0.04015
G1 X121.965 Y98.086 E0.02228
G1 X122.623 Y98.038 E0.02071
G1 X123.408 Y98.145 E0.02483
G1 X124.106 Y98.454 E0.02393
G1 F8640
G1 X124.690 Y98.983 E-0.18193
G1 X125.066 Y99.691 E-0.18523
G1 X125.469 Y101.344 E-0.39284
G1 E-0.04000 F2100.00000
G1 Z0.800 F10800.000
G1 X121.228 Y101.809
G1 Z0.200
G1 E0.80000 F2100.00000
G1 F900
G1 X121.138 Y102.079 E0.00893
G1 X120.868 Y102.676 E0.02054
G1 X120.685 Y103.154 E0.01606
G1 X120.528 Y103.641 E0.01604
G1 X120.414 Y104.145 E0.01621
G1 X120.361 Y104.566 E0.01330
G1 X120.346 Y104.989 E0.01326
G1 X120.370 Y105.410 E0.01324
G1 X120.431 Y105.828 E0.01323
G1 X120.527 Y106.238 E0.01322
G1 X120.659 Y106.639 E0.01322
G1 X120.824 Y107.027 E0.01322
G1 X121.024 Y107.401 E0.01329
G1 X121.370 Y107.906 E0.01921
G1 X121.779 Y108.362 E0.01920
G1 X122.011 Y108.575 E0.00987
G1 X122.500 Y108.944 E0.01922
G1 X123.036 Y109.249 E0.01933
G1 X123.606 Y109.482 E0.01931
G1 X124.202 Y109.641 E0.01933
G1 X124.912 Y109.732 E0.02245
G1 X124.913 Y110.173 E0.01383
G1 X124.450 Y110.149 E0.01453
G1 X123.783 Y110.024 E0.02130
G1 X123.136 Y109.813 E0.02133
G1 X122.832 Y109.680 E0.01041
G1 X122.237 Y109.347 E0.02138
G1 X121.689 Y108.939 E0.02140
G1 X121.442 Y108.716 E0.01043
G1 X120.985 Y108.211 E0.02136
G1 X120.600 Y107.651 E0.02131
G1 X120.382 Y107.242 E0.01453
G1 X120.199 Y106.814 E0.01461
G1 X120.054 Y106.371 E0.01462
G1 X119.947 Y105.917 E0.01462
G1 X119.881 Y105.455 E0.01461
G1 X119.857 Y104.990 E0.01459
G1 X119.874 Y104.526 E0.01458
G1 X119.934 Y104.065 E0.01455
G1 X120.067 Y103.509 E0.01794
G1 X120.317 Y102.882 E0.02116
G1 X120.536 Y102.494 E0.01399
G1 X120.881 Y102.060 E0.01737
G1 X121.004 Y101.951 E0.00514
G1 X121.177 Y101.841 E0.00644
G1 X121.084 Y102.055 F10800.000
G1 F8640
G1 X121.138 Y102.079 E-0.05571
G1 X120.868 Y102.676 E-0.15127
G1 X120.685 Y103.154 E-0.11828
G1 X120.528 Y103.641 E-0.11814
G1 X120.414 Y104.145 E-0.11934
G1 X120.361 Y104.566 E-0.09791
G1 X120.346 Y104.989 E-0.09765
G1 X120.347 Y104.996 E-0.00170
G1 E-0.04000 F2100.00000
G1 Z0.800 F10800.000
G1 X120.565 Y102.874
G1 Z0.200
G1 E0.80000 F2100.00000
G1 F900
G1 X120.473 Y103.072 E0.00119
G1 X120.297 Y103.579 E0.00292
G1 X120.175 Y104.101 E0.00292
G1 X120.117 Y104.546 E0.00245
G1 X120.102 Y104.994 E0.00244
G1 X120.126 Y105.437 E0.00242
G1 X120.189 Y105.871 E0.00239
G1 X120.290 Y106.304 E0.00242
G1 X120.429 Y106.728 E0.00243
G1 X120.604 Y107.136 E0.00241
G1 X120.811 Y107.523 E0.00239
G1 X121.177 Y108.059 E0.00354
G1 X121.607 Y108.535 E0.00350
G1 X121.854 Y108.760 E0.00181
G1 X122.367 Y109.145 E0.00350
G1 X122.938 Y109.466 E0.00357
G1 X123.530 Y109.699 E0.00347
G1 X124.155 Y109.863 E0.00352
G1 X124.724 Y109.941 E0.00313
M106 S255
;BEFORE_LAYER_CHANGE
G92 E0.0
;0.35


G1 F8640
G1 X124.155 Y109.863 E-0.13253
G1 X123.530 Y109.699 E-0.14924
G1 X122.938 Y109.466 E-0.14700
G1 X122.367 Y109.145 E-0.15118
G1 X121.854 Y108.760 E-0.14821
G1 X121.752 Y108.667 E-0.03185
G1 E-0.04000 F2100.00000
G1 Z0.800 F10800.000
;AFTER_LAYER_CHANGE
;0.35
G1 X118.595 Y110.819
G1 Z0.350
G1 E0.80000 F2100.00000
G1 F900
G1 X117.609 Y109.487 E0.04007
G1 X116.917 Y108.059 E0.03838
G1 X116.497 Y106.559 E0.03769
G1 X116.346 Y105.015 E0.03752
G1 X116.476 Y103.451 E0.03796
G1 X116.979 Y101.719 E0.04362
G1 X117.562 Y100.567 E0.03122
G1 X118.032 Y99.872 E0.02029
G1 X118.632 Y99.174 E0.02226
G1 X119.760 Y98.225 E0.03565
G1 X120.493 Y97.797 E0.02054
G1 X121.235 Y97.508 E0.01926
G1 X121.895 Y97.333 E0.01652
G1 X122.626 Y97.284 E0.01770
G1 X123.556 Y97.403 E0.02270
G1 X124.442 Y97.763 E0.02312
G1 X125.124 Y98.324 E0.02134
G1 X125.617 Y99.069 E0.02161
G1 X125.914 Y99.847 E0.02015
G1 X128.012 Y108.615 E0.21802
G1 X128.061 Y110.958 E0.05668
G1 X127.976 Y111.493 E0.01310
G1 X127.792 Y112.007 E0.01320
G1 X127.423 Y112.603 E0.01697
G1 X126.925 Y113.093 E0.01687
G1 X126.327 Y113.451 E0.01687
G1 X125.661 Y113.659 E0.01687
G1 X124.899 Y113.708 E0.01847
G1 X124.045 Y113.644 E0.02071
G1 X122.445 Y113.295 E0.03960
G1 X121.227 Y112.806 E0.03175
G1 X119.813 Y111.935 E0.04016
G1 X118.639 Y110.859 E0.03851
G1 F8640
G1 X117.609 Y109.487 E-0.39615
G1 X116.922 Y108.069 E-0.36386
G1 E-0.04000 F2100.00000
G1 Z0.950 F10800.000
G1 X121.356 Y108.346
G1 Z0.350
G1 E0.80000 F2100.00000
M204 S800
G1 F900
G1 X120.940 Y107.819 E0.01751
G1 X120.772 Y107.557 E0.00811
G1 X120.559 Y107.158 E0.01178
G1 X120.383 Y106.745 E0.01170
G1 X120.243 Y106.317 E0.01172
G1 X120.140 Y105.880 E0.01171
G1 X120.076 Y105.435 E0.01170
G1 X120.052 Y104.988 E0.01167
G1 X120.068 Y104.542 E0.01164
G1 X120.125 Y104.102 E0.01154
G1 X120.252 Y103.565 E0.01439
G1 X120.437 Y103.054 E0.01416
G1 X120.678 Y102.577 E0.01392
G1 X120.921 Y102.227 E0.01111
G1 X120.720 Y102.610 E0.01127
G1 X120.513 Y103.089 E0.01358
G1 X120.345 Y103.590 E0.01377
G1 X120.225 Y104.110 E0.01392
G1 X120.168 Y104.551 E0.01158
G1 X120.153 Y104.992 E0.01149
G1 X120.178 Y105.431 E0.01145
G1 X120.240 Y105.865 E0.01143
G1 X120.341 Y106.291 E0.01141
G1 X120.477 Y106.707 E0.01141
G1 X120.653 Y107.120 E0.01168
G1 X121.025 Y107.764 E0.01940
G1 X121.417 Y108.263 E0.01654
G1 X121.654 Y108.510 E0.00891
G1 X122.133 Y108.920 E0.01642
G1 X122.660 Y109.265 E0.01642
G1 X122.962 Y109.424 E0.00889
G1 X123.546 Y109.661 E0.01641
G1 X124.154 Y109.822 E0.01640
G1 X124.479 Y109.874 E0.00857
G1 X124.479 Y109.964 E0.00232
G1 X124.158 Y109.913 E0.00846
G1 X123.517 Y109.747 E0.01727
G1 X122.902 Y109.500 E0.01727
G1 X122.630 Y109.359 E0.00797
G1 X122.073 Y108.997 E0.01732
G1 X121.568 Y108.566 E0.01731
G1 X121.397 Y108.389 E0.00639
M204 S1000
G1 F8640
G1 X120.940 Y107.819 E-0.16892
G1 X120.772 Y107.557 E-0.07186
G1 X120.559 Y107.158 E-0.10440
G1 X120.383 Y106.745 E-0.10372
G1 X120.243 Y106.317 E-0.10383
G1 X120.140 Y105.880 E-0.10381
G1 X120.076 Y105.436 E-0.10345
G1 E-0.04000 F2100.00000
G1 Z0.950 F10800.000
G1 X124.814 Y110.413
G1 Z0.350
G1 E0.80000 F2100.00000
M204 S800
G1 F900
G1 X124.418 Y110.378 E0.01036
G1 X124.073 Y110.323 E0.00910
G1 X123.386 Y110.145 E0.01849
G1 X122.727 Y109.880 E0.01851
G1 X122.420 Y109.720 E0.00903
G1 X121.823 Y109.332 E0.01855
G1 X121.281 Y108.871 E0.01854
G1 X121.041 Y108.621 E0.00902
G1 X120.599 Y108.061 E0.01859
G1 X120.411 Y107.768 E0.00907
G1 X120.182 Y107.339 E0.01268
G1 X119.991 Y106.892 E0.01266
G1 X119.840 Y106.430 E0.01266
G1 X119.729 Y105.957 E0.01266
G1 X119.660 Y105.476 E0.01265
G1 X119.634 Y104.992 E0.01264
G1 X119.651 Y104.507 E0.01263
G1 X119.713 Y104.027 E0.01261
G1 X119.851 Y103.446 E0.01557
G1 X120.052 Y102.888 E0.01545
G1 X120.318 Y102.363 E0.01534
G1 X120.652 Y101.882 E0.01526
G1 X121.046 Y101.455 E0.01513
G1 X121.165 Y101.364 E0.00390
G1 F1500
G1 X121.502 Y101.107 E0.01774
G1 X121.727 Y100.990 E0.01061
G1 X122.004 Y100.884 E0.01237
G1 X122.138 Y100.882 E0.00560
G1 X122.183 Y100.953 E0.00354
G1 X122.155 Y101.047 E0.00408
G1 X121.987 Y101.343 E0.01422
G1 X121.639 Y101.875 E0.02656
G1 F900
G1 X121.327 Y102.353 E0.01488
G1 X121.098 Y102.790 E0.01287
G1 X120.903 Y103.239 E0.01273
G1 X120.747 Y103.703 E0.01277
G1 X120.637 Y104.184 E0.01285
G1 X120.585 Y104.585 E0.01054
G1 X120.571 Y104.988 E0.01050
G1 X120.594 Y105.389 E0.01048
G1 X120.651 Y105.787 E0.01047
G1 X120.743 Y106.178 E0.01047
G1 X120.868 Y106.560 E0.01047
G1 X121.027 Y106.933 E0.01056
G1 X121.372 Y107.530 E0.01796
G1 X121.733 Y107.989 E0.01521
G1 X121.941 Y108.206 E0.00784
G1 X122.384 Y108.585 E0.01519
G1 X122.872 Y108.905 E0.01520
G1 X123.138 Y109.045 E0.00784
G1 X123.678 Y109.264 E0.01518
G1 X124.241 Y109.412 E0.01518
G1 X124.536 Y109.460 E0.00777
G1 X124.896 Y109.491 E0.00941
G1 X124.899 Y110.412 E0.02399
G1 X124.874 Y110.412 E0.00063
M204 S1000
G1 X124.489 Y110.184 F10800.000
G1 F8640
G1 X124.418 Y110.378 E-0.10561
G1 X124.073 Y110.323 E-0.08062
G1 X123.386 Y110.145 E-0.16390
G1 X122.727 Y109.880 E-0.16401
G1 X122.420 Y109.720 E-0.08003
G1 X121.823 Y109.332 E-0.16435
G1 X121.818 Y109.328 E-0.00149
G1 E-0.04000 F2100.00000
G1 Z0.950 F10800.000
G1 X121.040 Y102.055
G1 Z0.350
G1 E0.80000 F2100.00000
G1 F900
G1 X121.295 Y101.728 E0.00924
G1
G1 X121.542 Y101.463 E0.00622
G1
G1 X121.789 Y101.197 E0.00422
;BEFORE_LAYER_CHANGE
G92 E0.0
;0.5


G1 F8640
G1 X121.542 Y101.463 E-0.08379
G1 E-0.71621 F2100.00000
G1 Z0.950 F10800.000
;AFTER_LAYER_CHANGE
;0.5
G1 X124.442 Y97.763
G1 Z0.500
G1 E0.80000 F2100.00000
G1 F900
G1 X125.124 Y98.324 E0.02134
G1 X125.617 Y99.069 E0.02161
G1 X125.914 Y99.847 E0.02015
G1 X128.012 Y108.615 E0.21802
G1 X128.061 Y110.958 E0.05668
G1 X127.976 Y111.493 E0.01310
G1 X127.792 Y112.007 E0.01320
G1 X127.423 Y112.603 E0.01697
G1 X126.925 Y113.093 E0.01687
G1 X126.327 Y113.451 E0.01687
G1 X125.661 Y113.659 E0.01687
G1 X124.899 Y113.708 E0.01847
G1 X124.045 Y113.644 E0.02071
G1 X122.445 Y113.295 E0.03960
G1 X121.227 Y112.806 E0.03175
G1 X119.813 Y111.935 E0.04016
G1 X118.595 Y110.819 E0.03996
G1 X117.609 Y109.487 E0.04007
G1 X116.917 Y108.059 E0.03838
G1 X116.497 Y106.559 E0.03769
G1 X116.346 Y105.015 E0.03752
G1 X116.476 Y103.451 E0.03796
G1 X116.979 Y101.719 E0.04362
G1 X117.562 Y100.567 E0.03122
G1 X118.032 Y99.872 E0.02029
G1 X118.632 Y99.174 E0.02226
G1 X119.760 Y98.225 E0.03565
G1 X120.493 Y97.797 E0.02054
G1 X121.235 Y97.508 E0.01926
G1 X121.895 Y97.333 E0.01652
G1 X122.626 Y97.284 E0.01770
G1 X123.556 Y97.403 E0.02270
G1 X124.386 Y97.741 E0.02167
G1 F8640
G1 X125.124 Y98.324 E-0.21702
G1 X125.617 Y99.069 E-0.20631
G1 X125.914 Y99.847 E-0.19241
G1 X126.059 Y100.455 E-0.14426
G1 E-0.04000 F2100.00000
G1 Z1.100 F10800.000
G1 X124.478 Y109.745
G1 Z0.500
G1 E0.80000 F2100.00000
M204 S800
G1 F900
G1 X124.479 Y110.082 E0.00879
G1 X124.135 Y110.031 E0.00906
G1 X123.469 Y109.858 E0.01794
G1 X123.174 Y109.751 E0.00816
G1 X122.553 Y109.453 E0.01796
G1 X122.284 Y109.290 E0.00818
G1 X121.739 Y108.884 E0.01772
G1 X121.252 Y108.411 E0.01769
G1 X121.051 Y108.172 E0.00813
G1 X120.664 Y107.609 E0.01781
G1 X120.451 Y107.210 E0.01178
G1 X120.270 Y106.787 E0.01198
G1 X120.127 Y106.350 E0.01199
G1 X120.022 Y105.902 E0.01199
G1 X119.957 Y105.447 E0.01197
G1 X119.932 Y104.989 E0.01194
G1 X119.948 Y104.532 E0.01191
G1 X120.007 Y104.082 E0.01182
G1 X120.137 Y103.532 E0.01473
G1 X120.326 Y103.007 E0.01454
G1 X120.574 Y102.512 E0.01443
G1 X120.878 Y102.054 E0.01433
G1 X121.236 Y101.641 E0.01424
G1 X121.632 Y101.289 E0.01380
G1 X121.917 Y101.113 E0.00872
G1 X121.375 Y101.774 E0.02227
G1 X121.083 Y102.209 E0.01365
G1 X120.833 Y102.660 E0.01344
G1 X120.624 Y103.132 E0.01343
G1 X120.459 Y103.623 E0.01350
G1 X120.342 Y104.131 E0.01358
G1 X120.287 Y104.561 E0.01130
G1 X120.272 Y104.991 E0.01122
G1 X120.296 Y105.420 E0.01118
G1 X120.358 Y105.843 E0.01115
G1 X120.455 Y106.259 E0.01114
G1 X120.588 Y106.665 E0.01113
G1 X120.756 Y107.058 E0.01114
G1 X120.961 Y107.441 E0.01133
G1 X121.305 Y107.943 E0.01585
G1 X121.520 Y108.199 E0.00871
G1 X121.960 Y108.629 E0.01602
G1 X122.452 Y108.998 E0.01602
G1 X122.736 Y109.171 E0.00869
G1 X123.281 Y109.435 E0.01575
G1 X123.593 Y109.550 E0.00868
G1 X124.187 Y109.707 E0.01600
G1 X124.419 Y109.737 E0.00609
M204 S1000
G1 X124.830 Y109.369 F10800.000
M204 S800
G1 F900
G1 X124.895 Y109.371 E0.00168
G1 X124.898 Y110.526 E0.03011
G1 X124.400 Y110.496 E0.01302
G1 X124.050 Y110.440 E0.00922
G1 X123.345 Y110.258 E0.01899
G1 X123.012 Y110.137 E0.00922
G1 X122.354 Y109.821 E0.01902
G1 X122.051 Y109.637 E0.00924
G1 X121.468 Y109.202 E0.01895
G1 X120.946 Y108.696 E0.01893
G1 X120.718 Y108.426 E0.00921
G1 X120.307 Y107.826 E0.01896
G1 X120.074 Y107.391 E0.01286
G1 X119.879 Y106.934 E0.01293
G1 X119.724 Y106.463 E0.01294
G1 X119.611 Y105.979 E0.01294
G1 X119.541 Y105.488 E0.01293
G1 X119.514 Y104.993 E0.01292
G1 X119.532 Y104.498 E0.01291
G1 X119.595 Y104.007 E0.01289
G1 X119.736 Y103.413 E0.01591
G1 X119.941 Y102.842 E0.01580
G1 X120.212 Y102.302 E0.01574
G1 X120.545 Y101.801 E0.01569
G1 X120.939 Y101.347 E0.01565
G1 X121.382 Y100.952 E0.01545
G1 X121.880 Y100.645 E0.01525
G1 X122.358 Y100.476 E0.01321
G1 F1500
G1 X122.703 Y100.456 E0.01442
G1 X122.777 Y100.478 E0.00325
G1 X122.819 Y100.574 E0.00436
