; generated by PrusaSlicer 2.0.0+win64 on 2019-06-17 at 16:03:49

; 

; external perimeters extrusion width = 0.45mm
; perimeters extrusion width = 0.45mm
; infill extrusion width = 0.45mm
; solid infill extrusion width = 0.45mm
; top infill extrusion width = 0.40mm
; support material extrusion width = 0.35mm
; first layer extrusion width = 0.42mm

M73 P0 R12
M73 Q0 S12
M201 X1000 Y1000 Z1000 E5000 ; sets maximum accelerations, mm/sec^2
M203 X200 Y200 Z12 E120 ; sets maximum feedrates, mm/sec
M204 P1250 R1250 T1250 ; sets acceleration (P, T) and retract acceleration (R), mm/sec^2
M205 X8.00 Y8.00 Z0.40 E1.50 ; sets the jerk limits, mm/sec
M205 S0 T0 ; sets the minimum extruding and travel feed rate, mm/sec
M107
M115 U3.7.1 ; tell printer latest fw version
G90 ; use absolute coordinates
M83 ; extruder relative mode
M104 S215 ; set extruder temp
M140 S60 ; set bed temp
M190 S60 ; wait for bed temp
M109 S215 ; wait for extruder temp
G28 W ; home all without mesh bed level
G80 ; mesh bed leveling
G1 Y-3.0 F1000.0 ; go outside print area
G92 E0.0
G1 X60.0 E9.0 F1000.0 ; intro line
M73 Q0 S12
M73 P0 R12
G1 X100.0 E12.5 F1000.0 ; intro line
G92 E0.0
M221 S95
M900 K30 ; Filament gcode
G21 ; set units to millimeters
G90 ; use absolute coordinates
M83 ; use relative distances for extrusion
;BEFORE_LAYER_CHANGE
G92 E0.0
;0.2


G1 E-0.80000 F2100.00000
G1 Z0.600 F10800.000
;AFTER_LAYER_CHANGE
;0.2
G1 X114.086 Y99.901
G1 Z0.200
G1 E0.80000 F2100.00000
M204 S1000
G1 F1200
G1 X115.349 Y98.462 E0.06001
G1 X116.153 Y97.770 E0.03327
G1 X117.213 Y97.061 E0.03998
G1 X118.174 Y96.579 E0.03372
G1 X118.915 Y96.311 E0.02470
G1 X120.026 Y96.039 E0.03587
G1 X121.066 Y95.951 E0.03272
G1 X121.925 Y95.992 E0.02695
G1 X122.683 Y96.124 E0.02414
G1 X123.578 Y96.404 E0.02940
G1 X124.310 Y96.740 E0.02526
G1 X124.984 Y97.171 E0.02507
G1 X125.598 Y97.694 E0.02529
G1 X126.182 Y98.340 E0.02729
G1 X126.633 Y98.993 E0.02489
G1 X127.013 Y99.750 E0.02657
G1 X127.281 Y100.560 E0.02676
G1 X129.371 Y109.877 E0.29937
G1 X129.439 Y110.739 E0.02713
G1 X129.386 Y113.172 E0.07631
G1 X129.116 Y114.303 E0.03646
G1 X128.627 Y115.358 E0.03646
G1 X127.850 Y116.393 E0.04055
G1 X126.870 Y117.227 E0.04037
G1 X125.731 Y117.827 E0.04037
G1 X124.482 Y118.163 E0.04055
G1 X123.709 Y118.230 E0.02433
G1 X122.698 Y118.199 E0.03170
G1 X121.459 Y118.036 E0.03919
G1 X120.466 Y117.805 E0.03197
G1 X118.444 Y117.035 E0.06782
G1 X117.312 Y116.396 E0.04075
G1 X116.496 Y115.825 E0.03125
G1 X114.894 Y114.341 E0.06846
G1 X114.304 Y113.621 E0.02918
G1 X113.585 Y112.555 E0.04032
G1 X112.665 Y110.623 E0.06709
G1 X112.347 Y109.628 E0.03275
G1 X112.102 Y108.505 E0.03603
G1 X111.971 Y107.429 E0.03401
G1 X111.957 Y105.855 E0.04935
G1 X112.085 Y104.679 E0.03709
G1 X112.283 Y103.739 E0.03012
G1 X112.656 Y102.543 E0.03925
G1 X113.072 Y101.581 E0.03288
G1 X114.055 Y99.952 E0.05965
G1 X114.706 Y99.708 F10800.000
G1 F1200
G1 X115.498 Y98.839 E0.03684
G1 X116.319 Y98.118 E0.03426
G1 X117.290 Y97.452 E0.03690
G1 X118.271 Y96.949 E0.03457
G1 X118.974 Y96.687 E0.02353
G1 X120.070 Y96.414 E0.03541
G1 X121.066 Y96.328 E0.03137
G1 X122.600 Y96.492 E0.04836
G1 X123.454 Y96.760 E0.02809
G1 X124.146 Y97.080 E0.02389
G1 X124.781 Y97.490 E0.02371
G1 X125.362 Y97.991 E0.02403
G1 X125.914 Y98.609 E0.02600
G1 X126.336 Y99.230 E0.02353
G1 X126.679 Y99.929 E0.02443
G1 X126.918 Y100.665 E0.02425
G1 X128.995 Y109.912 E0.29717
G1 X129.062 Y110.723 E0.02552
G1 X129.018 Y113.078 E0.07383
G1 X128.775 Y114.134 E0.03400
G1 X128.329 Y115.122 E0.03400
G1 X127.606 Y116.101 E0.03814
G1 X126.691 Y116.893 E0.03796
G1 X125.618 Y117.466 E0.03814
G1 X124.444 Y117.787 E0.03814
G1 X122.733 Y117.824 E0.05367
G1 X121.528 Y117.665 E0.03812
G1 X120.572 Y117.443 E0.03076
G1 X118.616 Y116.699 E0.06564
G1 X117.515 Y116.078 E0.03962
G1 X116.730 Y115.529 E0.03006
G1 X115.175 Y114.089 E0.06643
G1 X113.912 Y112.367 E0.06697
G1 X113.022 Y110.501 E0.06481
G1 X112.478 Y108.469 E0.06597
G1 X112.312 Y106.551 E0.06035
G1 X112.354 Y105.563 E0.03101
G1 X112.510 Y104.447 E0.03534
G1 X112.731 Y103.515 E0.03003
G1 X113.092 Y102.463 E0.03486
G1 X113.531 Y101.505 E0.03304
G1 X114.158 Y100.452 E0.03842
G1 X114.671 Y99.756 E0.02713
G1 X114.974 Y99.978 F10800.000
G1 F1200
G1 X115.749 Y99.121 E0.03623
G1 X116.543 Y98.421 E0.03318
G1 X117.466 Y97.786 E0.03515
G1 X119.069 Y97.052 E0.05527
G1 X120.120 Y96.788 E0.03399
G1 X121.064 Y96.705 E0.02969
G1 X122.512 Y96.858 E0.04566
G1 X123.325 Y97.114 E0.02673
G1 X123.976 Y97.417 E0.02253
G1 X124.574 Y97.806 E0.02235
G1 X125.120 Y98.281 E0.02269
G1 X125.637 Y98.868 E0.02453
G1 X126.033 Y99.461 E0.02235
G1 X126.555 Y100.766 E0.04408
G1 X128.620 Y109.956 E0.29532
G1 X128.685 Y110.716 E0.02392
G1 X128.649 Y112.993 E0.07140
G1 X128.432 Y113.971 E0.03141
G1 X128.026 Y114.892 E0.03158
G1 X127.357 Y115.816 E0.03575
G1 X126.504 Y116.564 E0.03558
G1 X125.506 Y117.104 E0.03558
G1 X124.408 Y117.411 E0.03575
G1 X122.768 Y117.448 E0.05143
G1 X121.596 Y117.295 E0.03704
G1 X120.679 Y117.082 E0.02954
G1 X118.787 Y116.363 E0.06345
G1 X117.718 Y115.760 E0.03848
G1 X116.967 Y115.236 E0.02869
G1 X115.460 Y113.842 E0.06439
G1 X114.239 Y112.178 E0.06470
G1 X113.379 Y110.379 E0.06254
G1 X112.853 Y108.430 E0.06327
G1 X112.689 Y106.565 E0.05871
G1 X112.877 Y104.537 E0.06387
G1 X113.435 Y102.621 E0.06257
G1 X113.857 Y101.696 E0.03189
G1 X114.453 Y100.687 E0.03674
G1 X114.938 Y100.027 E0.02570
G1 F8640
G1 X115.749 Y99.121 E-0.28057
G1 X116.543 Y98.421 E-0.24437
G1 X117.381 Y97.845 E-0.23506
G1 E-0.04000 F2100.00000
G1 Z0.800 F10800.000
G1 X123.796 Y106.441
G1 Z0.200
G1 E0.80000 F2100.00000
G1 F1200
G1 X125.048 Y106.633 E0.03972
G1 X125.670 Y106.887 E0.02104
G1 X126.309 Y107.261 E0.02323
G1 X127.336 Y108.259 E0.04489
G1 X128.031 Y109.471 E0.04381
G1 X128.308 Y110.671 E0.03862
G1 X128.308 Y112.432 E0.05522
G1 X128.013 Y113.731 E0.04177
G1 X127.426 Y114.789 E0.03792
G1 X126.597 Y115.671 E0.03795
G1 X124.807 Y116.596 E0.06319
G1 X124.059 Y116.704 E0.02370
G1 X122.992 Y116.711 E0.03345
G1 X122.129 Y116.621 E0.02721
G1 X121.113 Y116.421 E0.03246
G1 X119.959 Y116.054 E0.03797
G1 X119.262 Y115.758 E0.02374
G1 X118.626 Y115.430 E0.02245
G1 X118.006 Y115.053 E0.02275
G1 X117.128 Y114.403 E0.03426
G1 X116.484 Y113.827 E0.02707
G1 X116.058 Y113.384 E0.01929
G1 X115.660 Y112.915 E0.01927
G1 X115.232 Y112.337 E0.02257
G1 X114.786 Y111.623 E0.02640
G1 X114.393 Y110.860 E0.02690
G1 X114.070 Y110.079 E0.02651
G1 X113.811 Y109.269 E0.02665
G1 X113.606 Y108.370 E0.02892
G1 X113.484 Y107.468 E0.02854
G1 X113.441 Y106.554 E0.02867
G1 X113.480 Y105.648 E0.02845
G1 X113.608 Y104.715 E0.02952
G1 X113.842 Y103.742 E0.03139
G1 X114.173 Y102.822 E0.03063
G1 X114.615 Y101.927 E0.03130
G1 X115.274 Y100.933 E0.03741
G1 X116.062 Y100.045 E0.03721
G1 X117.350 Y99.113 E0.04985
G1 X118.149 Y98.734 E0.02772
G1 X119.062 Y98.506 E0.02952
G1 X120.343 Y98.499 E0.04014
G1 X121.611 Y98.775 E0.04069
G1 X122.701 Y99.368 E0.03891
G1 X123.758 Y100.432 E0.04703
G1 X124.390 Y101.655 E0.04317
G1 X124.656 Y103.009 E0.04327
G1 X124.586 Y104.237 E0.03856
G1 X124.227 Y105.418 E0.03872
G1 X123.820 Y106.386 E0.03291
G1 X123.375 Y106.681 F10800.000
G1 F1200
G1 X123.554 Y106.787 E0.00651
G1 X124.928 Y106.991 E0.04358
G1 X125.491 Y107.219 E0.01904
G1 X126.099 Y107.575 E0.02209
G1 X127.023 Y108.471 E0.04036
G1 X127.670 Y109.586 E0.04040
G1 X127.931 Y110.694 E0.03569
G1 X127.931 Y112.412 E0.05387
G1 X127.670 Y113.574 E0.03735
G1 X127.135 Y114.548 E0.03485
G1 X126.345 Y115.389 E0.03618
G1 X124.721 Y116.228 E0.05730
G1 X124.043 Y116.327 E0.02148
G1 X123.000 Y116.334 E0.03271
G1 X122.194 Y116.250 E0.02542
G1 X121.197 Y116.053 E0.03185
G1 X120.083 Y115.697 E0.03668
G1 X119.416 Y115.414 E0.02270
G1 X118.805 Y115.098 E0.02158
G1 X118.209 Y114.736 E0.02185
G1 X117.359 Y114.105 E0.03318
G1 X116.751 Y113.561 E0.02559
G1 X116.341 Y113.135 E0.01853
G1 X115.951 Y112.676 E0.01888
G1 X115.539 Y112.119 E0.02173
G1 X115.110 Y111.430 E0.02545
G1 X114.732 Y110.695 E0.02592
G1 X114.427 Y109.956 E0.02506
G1 X114.177 Y109.177 E0.02566
G1 X113.979 Y108.310 E0.02788
G1 X113.860 Y107.441 E0.02749
G1 X113.818 Y106.562 E0.02762
G1 X113.855 Y105.689 E0.02737
G1 X113.976 Y104.793 E0.02835
G1 X114.200 Y103.859 E0.03013
G1 X114.516 Y102.979 E0.02931
G1 X114.936 Y102.125 E0.02985
G1 X115.565 Y101.173 E0.03577
G1 X116.330 Y100.311 E0.03612
G1 X117.556 Y99.430 E0.04734
G1 X118.292 Y99.084 E0.02550
G1 X119.130 Y98.878 E0.02707
G1 X120.285 Y98.872 E0.03620
G1 X121.455 Y99.119 E0.03750
G1 X122.497 Y99.686 E0.03718
G1 X123.436 Y100.631 E0.04178
G1 X124.043 Y101.804 E0.04142
G1 X124.278 Y103.013 E0.03861
G1 X124.219 Y104.150 E0.03570
G1 X123.869 Y105.299 E0.03767
G1 X123.437 Y106.322 E0.03482
G1 X123.386 Y106.622 E0.00955
G1 X123.012 Y106.673 F10800.000
G1 F1200
G1 X123.090 Y106.883 E0.00704
G1 X123.170 Y106.984 E0.00404
G1 X123.338 Y107.106 E0.00652
G1 X123.479 Y107.158 E0.00472
G1 X124.809 Y107.350 E0.04214
G1 X125.313 Y107.552 E0.01701
G1 X125.888 Y107.889 E0.02090
G1 X126.741 Y108.723 E0.03740
G1 X127.310 Y109.701 E0.03548
G1 X127.554 Y110.716 E0.03274
G1 X127.554 Y112.391 E0.05252
G1 X127.326 Y113.416 E0.03292
G1 X126.816 Y114.345 E0.03322
G1 X126.093 Y115.106 E0.03291
G1 X124.635 Y115.859 E0.05148
G1 X124.027 Y115.950 E0.01927
G1 X123.028 Y115.958 E0.03131
G1 X122.258 Y115.878 E0.02427
G1 X121.281 Y115.685 E0.03123
G1 X120.206 Y115.341 E0.03539
G1 X119.571 Y115.070 E0.02166
G1 X118.984 Y114.766 E0.02072
G1 X118.413 Y114.418 E0.02096
G1 X117.591 Y113.808 E0.03210
G1 X117.018 Y113.294 E0.02412
G1 X116.617 Y112.878 E0.01813
G1 X116.243 Y112.437 E0.01813
G1 X115.847 Y111.901 E0.02090
G1 X115.441 Y111.250 E0.02404
G1 X115.077 Y110.543 E0.02494
G1 X114.783 Y109.833 E0.02409
G1 X114.543 Y109.085 E0.02466
G1 X114.351 Y108.250 E0.02684
G1 X114.236 Y107.415 E0.02644
G1 X114.196 Y106.569 E0.02656
G1 X114.230 Y105.731 E0.02630
G1 X114.345 Y104.871 E0.02719
G1 X114.559 Y103.976 E0.02887
G1 X114.859 Y103.135 E0.02799
G1 X115.258 Y102.322 E0.02838
G1 X115.872 Y101.392 E0.03496
G1 X116.597 Y100.578 E0.03418
G1 X117.760 Y99.747 E0.04482
G1 X118.433 Y99.434 E0.02328
G1 X119.197 Y99.249 E0.02463
G1 X120.229 Y99.245 E0.03235
G1 X121.302 Y99.465 E0.03435
G1 X122.251 Y99.974 E0.03377
G1 X123.115 Y100.831 E0.03816
G1 X123.695 Y101.952 E0.03959
G1 X123.904 Y103.059 E0.03530
G1 X123.844 Y104.104 E0.03283
G1 X123.512 Y105.178 E0.03524
G1 X123.080 Y106.198 E0.03474
G1 X123.006 Y106.510 E0.01005
G1 X123.010 Y106.613 E0.00322
G1 X122.633 Y106.628 F10800.000
G1 F1200
G1 X122.638 Y106.748 E0.00376
G1 X122.757 Y107.069 E0.01076
G1 X122.906 Y107.259 E0.00755
G1 X123.159 Y107.443 E0.00983
G1 X123.373 Y107.521 E0.00713
G1 X123.539 Y107.553 E0.00530
G1 X124.693 Y107.709 E0.03650
G1 X125.135 Y107.885 E0.01491
G1 X125.677 Y108.202 E0.01969
G1 X126.458 Y108.973 E0.03442
G1 X126.951 Y109.818 E0.03064
G1 X127.177 Y110.740 E0.02976
G1 X127.177 Y112.371 E0.05116
G1 X126.982 Y113.261 E0.02855
G1 X126.525 Y114.104 E0.03006
G1 X125.842 Y114.823 E0.03112
G1 X124.547 Y115.491 E0.04568
G1 X124.010 Y115.573 E0.01705
G1 X123.056 Y115.581 E0.02991
G1 X122.323 Y115.507 E0.02311
G1 X121.365 Y115.317 E0.03061
G1 X120.330 Y114.984 E0.03408
G1 X119.726 Y114.726 E0.02061
G1 X119.163 Y114.434 E0.01986
G1 X118.617 Y114.101 E0.02006
G1 X117.823 Y113.510 E0.03103
G1 X117.285 Y113.028 E0.02267
G1 X116.901 Y112.629 E0.01735
G1 X116.535 Y112.198 E0.01774
G1 X116.155 Y111.683 E0.02006
G1 X115.773 Y111.071 E0.02263
G1 X115.423 Y110.391 E0.02397
G1 X115.140 Y109.710 E0.02313
G1 X114.908 Y108.992 E0.02366
G1 X114.724 Y108.190 E0.02580
G1 X114.612 Y107.388 E0.02539
G1 X114.573 Y106.575 E0.02551
G1 X114.605 Y105.772 E0.02522
G1 X114.715 Y104.949 E0.02602
G1 X114.918 Y104.092 E0.02761
G1 X115.203 Y103.291 E0.02667
G1 X115.579 Y102.519 E0.02691
G1 X116.163 Y101.633 E0.03329
G1 X116.864 Y100.845 E0.03306
G1 X117.964 Y100.065 E0.04226
G1 X118.573 Y99.784 E0.02104
G1 X119.262 Y99.621 E0.02220
G1 X120.175 Y99.619 E0.02861
G1 X121.152 Y99.812 E0.03124
G1 X122.006 Y100.262 E0.03027
G1 X122.828 Y101.077 E0.03629
G1 X123.346 Y102.097 E0.03590
G1 X123.528 Y103.103 E0.03203
G1 X123.469 Y104.057 E0.02999
G1 X123.155 Y105.056 E0.03282
G1 X122.720 Y106.080 E0.03489
G1 X122.627 Y106.473 E0.01268
G1 X122.631 Y106.568 E0.00296
G1 X122.248 Y106.437 F10800.000
G1 F1200
G1 X122.262 Y106.798 E0.01135
G1 X122.332 Y107.050 E0.00819
G1 X122.440 Y107.276 E0.00784
G1 X122.641 Y107.533 E0.01025
G1 X122.981 Y107.779 E0.01314
G1 X123.272 Y107.885 E0.00970
G1 X124.578 Y108.069 E0.04136
G1 X124.958 Y108.218 E0.01279
G1 X125.465 Y108.515 E0.01845
G1 X126.175 Y109.223 E0.03141
G1 X126.592 Y109.936 E0.02591
G1 X126.800 Y110.763 E0.02675
G1 X126.800 Y112.352 E0.04980
G1 X126.637 Y113.105 E0.02417
G1 X126.206 Y113.901 E0.02839
G1 X125.592 Y114.539 E0.02776
G1 X124.459 Y115.124 E0.03998
G1 X123.992 Y115.196 E0.01482
G1 X123.083 Y115.205 E0.02849
G1 X122.387 Y115.135 E0.02194
G1 X121.449 Y114.949 E0.02997
G1 X120.455 Y114.628 E0.03276
G1 X119.881 Y114.382 E0.01957
G1 X119.343 Y114.103 E0.01901
G1 X118.821 Y113.784 E0.01917
G1 X118.055 Y113.213 E0.02995
G1 X117.552 Y112.761 E0.02122
G1 X117.177 Y112.372 E0.01695
G1 X116.827 Y111.959 E0.01697
G1 X116.463 Y111.465 E0.01923
G1 X116.104 Y110.891 E0.02124
G1 X115.768 Y110.239 E0.02299
G1 X115.496 Y109.586 E0.02216
G1 X115.274 Y108.899 E0.02266
G1 X115.096 Y108.130 E0.02476
G1 X114.989 Y107.361 E0.02434
G1 X114.950 Y106.582 E0.02445
G1 X114.980 Y105.812 E0.02414
G1 X115.084 Y105.026 E0.02486
G1 X115.277 Y104.209 E0.02634
G1 X115.554 Y103.427 E0.02600
G1 X115.913 Y102.696 E0.02553
G1 X116.454 Y101.873 E0.03088
G1 X117.131 Y101.112 E0.03194
G1 X118.166 Y100.384 E0.03967
G1 X118.711 Y100.136 E0.01879
G1 X119.326 Y99.994 E0.01977
G1 X120.122 Y99.992 E0.02498
G1 X121.005 Y100.160 E0.02816
G1 X121.764 Y100.552 E0.02680
G1 X122.506 Y101.276 E0.03250
G1 X122.997 Y102.242 E0.03399
G1 X123.153 Y103.143 E0.02867
G1 X123.095 Y104.008 E0.02717
G1 X122.799 Y104.932 E0.03043
G1 X122.361 Y105.962 E0.03508
G1 X122.262 Y106.378 E0.01343
G1 X121.869 Y106.400 F10800.000
G1 F1200
G1 X121.887 Y106.857 E0.01435
G1 X121.978 Y107.183 E0.01059
G1 X122.117 Y107.476 E0.01017
G1 X122.369 Y107.797 E0.01281
G1 X122.657 Y108.027 E0.01155
G1 X122.832 Y108.126 E0.00629
G1 X123.170 Y108.249 E0.01129
G1 X123.419 Y108.298 E0.00797
G1 X124.464 Y108.429 E0.03303
G1 X124.781 Y108.551 E0.01063
G1 X125.253 Y108.828 E0.01716
G1 X125.890 Y109.471 E0.02838
G1 X126.234 Y110.056 E0.02129
G1 X126.423 Y110.788 E0.02369
G1 X126.423 Y112.332 E0.04842
G1 X126.291 Y112.953 E0.01988
G1 X125.916 Y113.659 E0.02510
G1 X125.342 Y114.255 E0.02593
G1 X124.370 Y114.756 E0.03430
G1 X123.974 Y114.819 E0.01258
G1 X123.110 Y114.829 E0.02707
G1 X122.451 Y114.763 E0.02077
G1 X121.533 Y114.582 E0.02933
G1 X120.580 Y114.273 E0.03144
G1 X120.037 Y114.039 E0.01853
G1 X119.523 Y113.771 E0.01816
G1 X119.026 Y113.467 E0.01828
G1 X118.288 Y112.916 E0.02887
G1 X117.818 Y112.495 E0.01978
G1 X117.460 Y112.123 E0.01617
G1 X117.119 Y111.720 E0.01657
G1 X116.771 Y111.248 E0.01839
G1 X116.436 Y110.710 E0.01986
G1 X116.113 Y110.087 E0.02201
G1 X115.847 Y109.449 E0.02167
G1 X115.635 Y108.791 E0.02168
G1 X115.468 Y108.069 E0.02323
G1 X115.365 Y107.333 E0.02330
G1 X115.327 Y106.588 E0.02340
G1 X115.355 Y105.852 E0.02307
G1 X115.453 Y105.103 E0.02370
G1 X115.636 Y104.324 E0.02507
G1 X115.898 Y103.583 E0.02465
G1 X116.246 Y102.872 E0.02482
G1 X116.744 Y102.113 E0.02847
G1 X117.398 Y101.380 E0.03080
G1 X118.367 Y100.703 E0.03707
G1 X118.815 Y100.499 E0.01542
G1 X119.389 Y100.366 E0.01847
G1 X120.104 Y100.369 E0.02242
G1 X120.860 Y100.509 E0.02412
G1 X121.522 Y100.843 E0.02324
G1 X122.219 Y101.523 E0.03054
G1 X122.646 Y102.383 E0.03012
G1 X122.777 Y103.181 E0.02536
G1 X122.720 Y103.957 E0.02438
G1 X122.443 Y104.807 E0.02804
G1 X122.002 Y105.843 E0.03532
G1 X121.883 Y106.342 E0.01606
G1 X121.490 Y106.363 F10800.000
G1 F1200
G1 X121.512 Y106.916 E0.01735
G1 X121.623 Y107.315 E0.01299
G1 X121.786 Y107.658 E0.01191
G1 X121.936 Y107.877 E0.00829
G1 X122.115 Y108.076 E0.00841
G1 X122.446 Y108.340 E0.01327
G1 X122.673 Y108.469 E0.00820
G1 X123.068 Y108.613 E0.01320
